!!!COM: Schubert, Franz
!!!CDT: 1797/01/31/-1828/11/19/
!!!CNT: Austrian
!!!OTL: String Quartet No. 10 in E-flat Major, Op. 125, No. 1
!!!ODT: 1813/11//
!!!PDT: 1840
!!!SCA: D 87
!!!OPS: Op. 125
!!!ONM: No. 1
!!!OMV: Mvmt. 4
!!!OMD: Allegro
**kern	**dynam	**kern	**dynam	**kern	**dynam	**kern	**dynam
*staff4	*staff4	*staff3	*staff3	*staff2	*staff2	*staff1	*staff1
*Icello	*Icello	*Iviola	*Iviola	*Ivioln	*Ivioln	*Ivioln	*Ivioln
*>[A,A,B]	*>[A,A,B]	*>[A,A,B]	*>[A,A,B]	*>[A,A,B]	*>[A,A,B]	*>[A,A,B]	*>[A,A,B]
*>norep[A,B]	*>norep[A,B]	*>norep[A,B]	*>norep[A,B]	*>norep[A,B]	*>norep[A,B]	*>norep[A,B]	*>norep[A,B]
*>A	*>A	*>A	*>A	*>A	*>A	*>A	*>A
*clefF4	*clefF4	*clefC3	*clefC3	*clefG2	*clefG2	*clefG2	*clefG2
*k[b-e-a-]	*k[b-e-a-]	*k[b-e-a-]	*k[b-e-a-]	*k[b-e-a-]	*k[b-e-a-]	*k[b-e-a-]	*k[b-e-a-]
*M2/4	*M2/4	*M2/4	*M2/4	*M2/4	*M2/4	*M2/4	*M2/4
*MM100	*MM100	*MM100	*MM100	*MM100	*MM100	*MM100	*MM100
=1-	=1-	=1-	=1-	=1-	=1-	=1-	=1-
[2E-\	p	16B-/LL	p	16G/LL	p	[2G/ [2e-/	p
.	.	16B-/	.	16G/	.	.	.
.	.	16G/	.	16B-/	.	.	.
.	.	16G/JJ	.	16B-/JJ	.	.	.
.	.	16B-/LL	.	16G/LL	.	.	.
.	.	16B-/	.	16G/	.	.	.
.	.	16G/	.	16B-/	.	.	.
.	.	16G/JJ	.	16B-/JJ	.	.	.
=2	=2	=2	=2	=2	=2	=2	=2
4E-\]	.	16B-/LL	.	16G/LL	.	(4G/] 4e-/]	.
.	.	16B-/	.	16G/	.	.	.
.	.	16G/	.	16B-/	.	.	.
.	.	16G/JJ	.	16B-/JJ	.	.	.
4r	.	16B-/LL	.	16G/LL	.	4en/)	p
.	.	16B-/	.	16G/	.	.	.
.	.	16G/	.	16B-/	.	.	.
.	.	16G/JJ	.	16B-/JJ	.	.	.
=3	=3	=3	=3	=3	=3	=3	=3
4E-\	.	16c/LL	.	16A-/LL	.	8f'/L	.
.	.	16c/	.	16A-/	.	.	.
.	.	16A-/	.	16c/	.	8g'/J	.
.	.	16A-/JJ	.	16c/JJ	.	.	.
4r	.	16c/LL	.	16A-/LL	.	8a-'/L	.
.	.	16c/	.	16A-/	.	.	.
.	.	16A-/	.	16c/	.	8b-'/J	.
.	.	16A-/JJ	.	16c/JJ	.	.	.
=4	=4	=4	=4	=4	=4	=4	=4
2r	.	16c/LL	.	16A-/LL	.	4cc\	.
.	.	16c/	.	16A-/	.	.	.
.	.	16A-/	.	16c/	.	.	.
.	.	16A-/JJ	.	16c/JJ	.	.	.
.	.	16c/LL	.	16A-/LL	.	4r	.
.	.	16c/	.	16A-/	.	.	.
.	.	16A-/	.	16c/	.	.	.
.	.	16A-/JJ	.	16c/JJ	.	.	.
=5	=5	=5	=5	=5	=5	=5	=5
[2E-\	.	16F/LL	.	16A-/LL	.	[2d/ [2b-/	.
.	.	16F/	.	16A-/	.	.	.
.	.	16A-/	.	16B-/	.	.	.
.	.	16A-/JJ	.	16B-/JJ	.	.	.
.	.	16F/LL	.	16A-/LL	.	.	.
.	.	16F/	.	16A-/	.	.	.
.	.	16A-/	.	16B-/	.	.	.
.	.	16A-/JJ	.	16B-/JJ	.	.	.
=6	=6	=6	=6	=6	=6	=6	=6
4E-\]	.	16F/LL	.	16A-/LL	.	4d/] 4b-/]	.
.	.	16F/	.	16A-/	.	.	.
.	.	16A-/	.	16B-/	.	.	.
.	.	16A-/JJ	.	16B-/JJ	.	.	.
4r	.	16F/LL	.	16A-/LL	p	8cc'\L	.
.	.	16F/	.	16A-/	.	.	.
.	.	16A-/	.	16B-/	.	8dd'\J	.
.	.	16A-/JJ	.	16B-/JJ	.	.	.
=7	=7	=7	=7	=7	=7	=7	=7
4E-\	.	16E-/LL	.	16G/LL	.	8ee-'\L	.
.	.	16E-/	.	16G/	.	.	.
.	.	16F/	.	16A-/	.	8ff'\J	.
.	.	16F/JJ	.	16A-/JJ	.	.	.
4r	.	16E-/LL	.	16G/LL	.	8gg'\L	.
.	.	16E-/	.	16G/	.	.	.
.	.	16F/	.	16A-/	.	8aa-'\J	.
.	.	16F/JJ	.	16A-/JJ	.	.	.
=8	=8	=8	=8	=8	=8	=8	=8
2r	.	16G/LL	.	16B-/LL	.	4bb-\	.
.	.	16G/	.	16B-/	.	.	.
.	.	16G-/	.	16An/	.	.	.
.	.	16G-/JJ	.	16A/JJ	.	.	.
.	.	16Gn/LL	.	16B-/LL	.	4r	.
.	.	16G/	.	16B-/	.	.	.
.	.	16E-/	.	16G/	.	.	.
.	.	16E-/JJ	.	16G/JJ	.	.	.
=9	=9	=9	=9	=9	=9	=9	=9
4BB-/	.	16F/LL	.	16d/LL	.	(12aa-\L	.
.	.	16F/	.	16d/	.	.	.
.	.	.	.	.	.	12gg\	.
.	.	16B-/	.	16B-/	.	.	.
.	.	.	.	.	.	12ff\J)	.
.	.	16B-/JJ	.	16B-/JJ	.	.	.
4r	.	16A-/LL	.	16d/LL	.	(12ff\L	.
.	.	16A-/	.	16d/	.	.	.
.	.	.	.	.	.	12ee-\	.
.	.	16B-/	.	16B-/	.	.	.
.	.	.	.	.	.	12dd\J)	.
.	.	16B-/JJ	.	16B-/JJ	.	.	.
=10	=10	=10	=10	=10	=10	=10	=10
2r	.	16G/LL	.	16e-/LL	.	(4ee-\	.
.	.	16G/	.	16e-/	.	.	.
.	.	16B-/	.	16B-/	.	.	.
.	.	16B-/JJ	.	16B-/JJ	.	.	.
.	.	16G/LL	.	16e-/LL	.	8b-\)	.
.	.	16G/	.	16e-/	.	.	.
.	.	16B-/	.	16B-/	.	8r	.
.	.	16B-/JJ	.	16B-/JJ	.	.	.
=11	=11	=11	=11	=11	=11	=11	=11
4BB-/	.	16F/LL	.	16d/LL	.	(12aa-\L	.
.	.	16F/	.	16d/	.	.	.
.	.	.	.	.	.	12gg\	.
.	.	16B-/	.	16B-/	.	.	.
.	.	.	.	.	.	12ff\J)	.
.	.	16B-/JJ	.	16B-/JJ	.	.	.
4r	.	16A-/LL	.	16d/LL	.	(12ff\L	.
.	.	16A-/	.	16d/	.	.	.
.	.	.	.	.	.	12ee-\	.
.	.	16B-/	.	16B-/	.	.	.
.	.	.	.	.	.	12dd\J)	.
.	.	16B-/JJ	.	16B-/JJ	.	.	.
=12	=12	=12	=12	=12	=12	=12	=12
2r	.	16G/LL	.	16e-/LL	.	(4ee-\	.
.	.	16G/	.	16e-/	.	.	.
.	.	16B-/	.	16B-/	.	.	.
.	.	16B-/JJ	.	16B-/JJ	.	.	.
.	.	16G/LL	.	16e-/LL	.	8bb-\)	.
.	.	16G/	.	16e-/	.	.	.
.	.	16B-/	.	16B-/	.	8r	.
.	.	16B-/JJ	.	16B-/JJ	.	.	.
=13	=13	=13	=13	=13	=13	=13	=13
4BB-/	.	16F/LL	.	16d/LL	.	(12aa-\L	.
.	.	16F/	.	16d/	.	.	.
.	.	.	.	.	.	12gg\	.
.	.	16B-/	.	16B-/	.	.	.
.	.	.	.	.	.	12ff\J)	.
.	.	16B-/JJ	.	16B-/JJ	.	.	.
4r	.	16A-/LL	.	16d/LL	.	(12ff\L	.
.	.	16A-/	.	16d/	.	.	.
.	.	.	.	.	.	12ee-\	.
.	.	16B-/	.	16B-/	.	.	.
.	.	.	.	.	.	12dd\J)	.
.	.	16B-/JJ	.	16B-/JJ	.	.	.
=14	=14	=14	=14	=14	=14	=14	=14
2r	.	16G/LL	.	16e-/LL	.	(4ee-\	.
.	.	16G/	.	16e-/	.	.	.
.	.	16B-/	.	16B-/	.	.	.
.	.	16B-/JJ	.	16B-/JJ	.	.	.
.	.	16G/LL	.	16e-/LL	.	8b-\)	.
.	.	16G/	.	16e-/	.	.	.
.	.	16B-/	.	16B-/	.	8r	.
.	.	16B-/JJ	.	16B-/JJ	.	.	.
=15	=15	=15	=15	=15	=15	=15	=15
4BB-/	.	16F/LL	.	16d/LL	.	(12aa-\L	.
.	.	16F/	.	16d/	.	.	.
.	.	.	.	.	.	12bb-\	.
.	.	16B-/	.	16B-/	.	.	.
.	.	.	.	.	.	12ccc\J)	.
.	.	16B-/JJ	.	16B-/JJ	.	.	.
4r	.	16A-/LL	.	16d/LL	.	(12ff\L	.
.	.	16A-/	.	16d/	.	.	.
.	.	.	.	.	.	12gg\	.
.	.	16B-/	.	16B-/	.	.	.
.	.	.	.	.	.	12aa-\J)	.
.	.	16B-/JJ	.	16B-/JJ	.	.	.
=16	=16	=16	=16	=16	=16	=16	=16
4EE-/	.	16E-/LL	.	16e-/LL	.	(4gg\	.
.	.	16E-/	.	16e-/	.	.	.
.	.	16B-/	.	16B-/	.	.	.
.	.	16B-/JJ	.	16B-/JJ	.	.	.
4r	.	16G/LL	.	16e-/LL	.	8bb-\)	.
.	.	16G/	.	16e-/	.	.	.
.	.	16B-/	.	16B-/	.	8r	.
.	.	16B-/JJ	.	16B-/JJ	.	.	.
=17	=17	=17	=17	=17	=17	=17	=17
[2E-\	.	16B-/LL	.	16G/LL	.	[2G/ [2e-/	.
.	.	16B-/	.	16G/	.	.	.
.	.	16G/	.	16B-/	.	.	.
.	.	16G/JJ	.	16B-/JJ	.	.	.
.	.	16B-/LL	.	16G/LL	.	.	.
.	.	16B-/	.	16G/	.	.	.
.	.	16G/	.	16B-/	.	.	.
.	.	16G/JJ	.	16B-/JJ	.	.	.
=18	=18	=18	=18	=18	=18	=18	=18
4E-\]	.	16B-/LL	.	16G/LL	.	(4G/] 4e-/]	.
.	.	16B-/	.	16G/	.	.	.
.	.	16G/	.	16B-/	.	.	.
.	.	16G/JJ	.	16B-/JJ	.	.	.
4r	.	16B-/LL	.	16G/LL	.	4en'/)	.
.	.	16B-/	.	16G/	p	.	.
.	.	16G/	.	16B-/	.	.	.
.	.	16G/JJ	.	16B-/JJ	.	.	.
=19	=19	=19	=19	=19	=19	=19	=19
4E-\	.	16c/LL	.	16A-/LL	.	8f'/L	.
.	.	16c/	.	16A-/	.	.	.
.	.	16A-/	.	16c/	.	8g'/J	.
.	.	16A-/JJ	.	16c/JJ	.	.	.
4r	.	16c/LL	.	16A-/LL	.	8a-'/L	.
.	.	16c/	.	16A-/	.	.	.
.	.	16A-/	.	16c/	.	8b-'/J	.
.	.	16A-/JJ	.	16c/JJ	.	.	.
=20	=20	=20	=20	=20	=20	=20	=20
2r	.	16c/LL	.	16A-/LL	.	4cc\	.
.	.	16c/	.	16A-/	.	.	.
.	.	16A-/	.	16c/	.	.	.
.	.	16A-/JJ	.	16c/JJ	.	.	.
.	.	16c/LL	.	16A-/LL	.	4r	.
.	.	16c/	.	16A-/	.	.	.
.	.	16A-/	.	16c/	.	.	.
.	.	16A-/JJ	.	16c/JJ	.	.	.
=21	=21	=21	=21	=21	=21	=21	=21
[2E-\	.	16F/LL	.	16A-/LL	.	[2d/ [2b-/	.
.	.	16F/	.	16A-/	.	.	.
.	.	16A-/	.	16B-/	.	.	.
.	.	16A-/JJ	.	16B-/JJ	.	.	.
.	.	16F/LL	.	16A-/LL	.	.	.
.	.	16F/	.	16A-/	.	.	.
.	.	16A-/	.	16B-/	.	.	.
.	.	16A-/JJ	.	16B-/JJ	.	.	.
=22	=22	=22	=22	=22	=22	=22	=22
4E-\]	.	16F/LL	.	16A-/LL	.	4d/] 4b-/]	.
.	.	16F/	.	16A-/	.	.	.
.	.	16A-/	.	16B-/	.	.	.
.	.	16A-/JJ	.	16B-/JJ	.	.	.
4r	.	16F/LL	.	16A-/LL	.	8cc'\L	p
.	.	16F/	.	16A-/	.	.	.
.	.	16A-/	.	16B-/	.	8dd'\J	.
.	.	16A-/JJ	.	16B-/JJ	.	.	.
=23	=23	=23	=23	=23	=23	=23	=23
4E-\	.	16E-/LL	.	16G/LL	.	8ee-'\L	.
.	.	16E-/	.	16G/	.	.	.
.	.	16F/	.	16A-/	.	8ff'\J	.
.	.	16F/JJ	.	16A-/JJ	.	.	.
4r	.	16E-/LL	.	16G/LL	.	8gg'\L	.
.	.	16E-/	.	16G/	.	.	.
.	.	16F/	.	16A-/	.	8aa-'\J	.
.	.	16F/JJ	.	16A-/JJ	.	.	.
=24	=24	=24	=24	=24	=24	=24	=24
2r	.	16G/LL	.	16B-/LL	.	4bb-\	.
.	.	16G/	.	16B-/	.	.	.
.	.	16G-/	.	16An/	.	.	.
.	.	16G-/JJ	.	16A/JJ	.	.	.
.	.	16Gn/LL	.	16B-/LL	.	4r	.
.	.	16G/	.	16B-/	.	.	.
.	.	16E-/	.	16G/	.	.	.
.	.	16E-/JJ	.	16G/JJ	.	.	.
=25	=25	=25	=25	=25	=25	=25	=25
4BB-/	.	16F/LL	.	16d/LL	.	(12aa-\L	.
.	.	16F/	.	16d/	.	.	.
.	.	.	.	.	.	12gg\	.
.	.	16B-/	.	16B-/	.	.	.
.	.	.	.	.	.	12ff\J)	.
.	.	16B-/JJ	.	16B-/JJ	.	.	.
4r	.	16A-/LL	.	16d/LL	.	(12ff\L	.
.	.	16A-/	.	16d/	.	.	.
.	.	.	.	.	.	12ee-\	.
.	.	16B-/	.	16B-/	.	.	.
.	.	.	.	.	.	12dd\J)	.
.	.	16B-/JJ	.	16B-/JJ	.	.	.
=26	=26	=26	=26	=26	=26	=26	=26
2r	.	16G/LL	.	16e-/LL	.	(4ee-\	.
.	.	16G/	.	16e-/	.	.	.
.	.	16B-/	.	16B-/	.	.	.
.	.	16B-/JJ	.	16B-/JJ	.	.	.
.	.	16G/LL	.	16e-/LL	.	8b-\)	.
.	.	16G/	.	16e-/	.	.	.
.	.	16B-/	.	16B-/	.	8r	.
.	.	16B-/JJ	.	16B-/JJ	.	.	.
=27	=27	=27	=27	=27	=27	=27	=27
4BB-/	.	16F/LL	.	16d/LL	.	(12aa-\L	.
.	.	16F/	.	16d/	.	.	.
.	.	.	.	.	.	12gg\	.
.	.	16B-/	.	16B-/	.	.	.
.	.	.	.	.	.	12ff\J)	.
.	.	16B-/JJ	.	16B-/JJ	.	.	.
4r	.	16A-/LL	.	16d/LL	.	(12ff\L	.
.	.	16A-/	.	16d/	.	.	.
.	.	.	.	.	.	12ee-\	.
.	.	16B-/	.	16B-/	.	.	.
.	.	.	.	.	.	12dd\J)	.
.	.	16B-/JJ	.	16B-/JJ	.	.	.
=28	=28	=28	=28	=28	=28	=28	=28
4EE-/	.	16G/LL	.	16e-/LL	.	(4ee-\	.
.	.	16G/	.	16e-/	.	.	.
.	.	16B-/	.	16B-/	.	.	.
.	.	16B-/JJ	.	16B-/JJ	.	.	.
4r	.	16G/LL	.	16e-/LL	.	8bb-\)	.
.	.	16G/	.	16e-/	.	.	.
.	.	16B-/	.	16B-/	.	8r	.
.	.	16B-/JJ	.	16B-/JJ	.	.	.
=29	=29	=29	=29	=29	=29	=29	=29
4E-\	.	16A-/LL	.	16c/LL	.	(12ccc\L	.
.	.	16A-/	.	16c/	.	.	.
.	.	.	.	.	.	12ddd\	.
.	.	16c/	.	16e-/	.	.	.
.	.	.	.	.	.	12eee-\J)	.
.	.	16c/JJ	.	16e-/JJ	.	.	.
4E-\	.	16A-/LL	.	16c/LL	.	(12eee-\L	.
.	.	16A-/	.	16c/	.	.	.
.	.	.	.	.	.	12ddd\	.
.	.	16c/	.	16e-/	.	.	.
.	.	.	.	.	.	12ccc\J)	.
.	.	16c/JJ	.	16e-/JJ	.	.	.
=30	=30	=30	=30	=30	=30	=30	=30
4E-\	.	16G/LL	.	16B-/LL	.	(4bb-\	.
.	.	16G/	.	16B-/	.	.	.
.	.	16B-/	.	16e-/	.	.	.
.	.	16B-/JJ	.	16e-/JJ	.	.	.
4E-\	.	16G/LL	.	16B-/LL	.	8ee-\)	.
.	.	16G/	.	16B-/	.	.	.
.	.	16B-/	.	16e-/	.	8r	.
.	.	16B-/JJ	.	16e-/JJ	.	.	.
=31	=31	=31	=31	=31	=31	=31	=31
8E-\L	.	16A-/LL	.	16c/LL	.	(12ccc\L	.
.	.	16A-/	.	16c/	.	.	.
.	.	.	.	.	.	12ddd\	.
8E-\	.	16c/	.	16e-/	.	.	.
.	.	.	.	.	.	12eee-\J)	.
.	.	16c/JJ	.	16e-/JJ	.	.	.
8E-\	.	16A-/LL	.	16c/LL	.	(12eee-\L	.
.	.	16A-/	.	16c/	.	.	.
.	.	.	.	.	.	12ddd\	.
8E-\J	.	16c/	.	16e-/	.	.	.
.	.	.	.	.	.	12ccc\J)	.
.	.	16c/JJ	.	16e-/JJ	.	.	.
=32	=32	=32	=32	=32	=32	=32	=32
8E-\L	.	16G/LL	.	16B-/LL	.	(4bb-\	.
.	.	16G/	.	16B-/	.	.	.
8E-\	.	16B-/	.	16e-/	.	.	.
.	.	16B-/JJ	.	16e-/JJ	.	.	.
8E-\	.	16G/LL	.	16B-/LL	.	8ee-\)	.
.	.	16G/	.	16B-/	.	.	.
8E-\J	.	16B-/	.	16e-/	.	8r	.
.	.	16B-/JJ	.	16e-/JJ	.	.	.
=33	=33	=33	=33	=33	=33	=33	=33
4AA-/	f	4c\ 4f\	f	4c/ 4f/	f	12ff'\L	f
.	.	.	.	.	.	12ccc'\	.
.	.	.	.	.	.	12bb-'\J	.
4r	.	4r	.	4r	.	12aa-'\L	.
.	.	.	.	.	.	12gg'\	.
.	.	.	.	.	.	12ff'\J	.
=34	=34	=34	=34	=34	=34	=34	=34
4BB-/	.	4B-\ 4f\	.	4B-/ 4a-/	.	12ee-'\L	.
.	.	.	.	.	.	12dd'\	.
.	.	.	.	.	.	12cc'\J	.
4r	.	4r	.	4r	.	12b-'\L	.
.	.	.	.	.	.	12cc'\	.
.	.	.	.	.	.	12dd'\J	.
=35	=35	=35	=35	=35	=35	=35	=35
4E-\	.	4G/ 4e-/	.	12g/L	.	4ee-\	.
.	.	.	.	12g/ 12b-/	.	.	.
.	.	.	.	12g/J 12b-/	.	.	.
4r	.	4r	.	12g/L 12b-/	.	4r	.
.	.	.	.	12g/ 12b-/	.	.	.
.	.	.	.	12g/J 12b-/	.	.	.
=36	=36	=36	=36	=36	=36	=36	=36
2r	.	4r	.	12g/L 12b-/	.	2r	.
.	.	.	.	12g/ 12b-/	.	.	.
.	.	.	.	12g/J 12b-/	.	.	.
.	.	(fq/	.	.	.	.	.
.	.	(12en\L)	.	12g/L 12b-/	.	.	.
.	.	12d\	.	12g/ 12b-/	.	.	.
.	.	12e\J)	.	12g/J 12b-/	.	.	.
=37	=37	=37	=37	=37	=37	=37	=37
2r	.	4f\	.	4a-/ 4b-/	.	2r	.
.	.	4d\	.	4a-/ 4b-/	.	.	.
=38	=38	=38	=38	=38	=38	=38	=38
4r	.	4B-/	.	4a-/ 4b-/	.	4r	.
(cq/	.	.	.	.	.	(ee-q/	.
(12B-\L)	p	4r	.	4a-/ 4b-/	.	(12dd\L)	p
12An\	.	.	.	.	.	12cc\	.
12B-\J)	.	.	.	.	.	12dd\J)	.
=39	=39	=39	=39	=39	=39	=39	=39
4E-'\	.	2r	.	4g/ 4b-/	.	[4ee-\	.
4EE-'/	.	.	.	4g/ 4b-/	.	(12ee-\L]	.
.	.	.	.	.	.	12ff\	.
.	.	.	.	.	.	12gg\J)	.
=40	=40	=40	=40	=40	=40	=40	=40
2r	.	4r	.	4g/ 4b-/	.	4b-\	.
.	.	(fq/	.	.	.	.	.
.	.	(12en\L)	.	4g/ 4b-/	.	4r	.
.	.	12d\	.	.	.	.	.
.	.	12e\J)	.	.	.	.	.
=41	=41	=41	=41	=41	=41	=41	=41
2r	.	4f'\	.	4a-/ 4b-/	.	2r	.
.	.	4d'\	.	4a-/ 4b-/	.	.	.
=42	=42	=42	=42	=42	=42	=42	=42
4r	.	4B-'/	.	4a-/ 4b-/	.	4r	.
(cq/	.	.	.	.	.	(ee-q/	.
(12B-\L)	.	4r	.	4a-/ 4b-/	.	(12dd\L)	.
12An\	.	.	.	.	.	12cc\	.
12B-\J)	.	.	.	.	.	12dd\J)	.
=43	=43	=43	=43	=43	=43	=43	=43
4E-'\	.	2r	.	4g/ 4b-/	.	[4ee-\	.
4EE-'/	.	.	.	4g/ 4b-/	.	(12ee-\L]	.
.	.	.	.	.	.	12ff\	.
.	.	.	.	.	.	12gg\J)	.
=44	=44	=44	=44	=44	=44	=44	=44
4r	.	4r	.	4g/ 4b-/	.	4b-\	.
(4G\	.	(4f\	.	(4bn\	.	(12dd\L	.
.	.	.	.	.	.	12ee-\	.
.	.	.	.	.	.	12dd\J)	.
=45	=45	=45	=45	=45	=45	=45	=45
8c\)	.	8e-\)	.	8cc\)	.	8cc\	.
8r	.	8r	.	8r	.	8r	.
(4G\	.	(4f\	.	(4bn\	.	(12dd\L	.
.	.	.	.	.	.	12ee-\	.
.	.	.	.	.	.	12dd\J)	.
=46	=46	=46	=46	=46	=46	=46	=46
8c\)	.	8e-\)	.	8cc\)	.	8cc\	.
8r	.	8r	.	8r	.	8r	.
(4G\	.	(12f\L	.	(4bn\	.	(12dd\L	.
.	.	12g\	.	.	.	12ee-\	.
.	.	12f\J)	.	.	.	12dd\J)	.
=47	=47	=47	=47	=47	=47	=47	=47
[2A-\)	p	(2e-\	p	[2cc\)	p	(4cc\	p
.	.	.	.	.	.	[4ccc\)	.
=48	=48	=48	=48	=48	=48	=48	=48
2A-\_	.	2en\	.	2cc\_	.	(4ccc\]	.
.	.	.	.	.	.	[4bb-\)	.
=49	=49	=49	=49	=49	=49	=49	=49
2A-\]	.	2f\)	.	2cc\]	.	(4bb-\]	.
.	.	.	.	.	.	8aa-\)	.
.	.	.	.	.	.	8r	.
=50	=50	=50	=50	=50	=50	=50	=50
2r	.	2r	.	2r	.	(8bb-\L	.
.	.	.	.	.	.	8aa-\	.
.	.	.	.	.	.	8gg\	.
.	.	.	.	.	.	8ff\J)	.
=51	=51	=51	=51	=51	=51	=51	=51
[2BB-/	.	(4.G/	.	(4.B-/	.	[2ee-\	.
.	.	8F#/)	.	8An/)	.	.	.
=52	=52	=52	=52	=52	=52	=52	=52
2BB-/]	.	(4G/	.	(4B-/	.	(4ee-\]	.
.	.	4A-/)	.	4d/)	.	8gg\L	.
.	.	.	.	.	.	8ff\J)	.
=53	=53	=53	=53	=53	=53	=53	=53
4EE-/	pp	12G\L	.	12e-/L	.	4ee-\	.
.	.	12g\	.	12b-/	pp	.	.
.	.	12g\J	.	12b-/J	.	.	.
4r	.	12g\L	.	12b-\L	.	4r	.
.	.	12g\	.	12b-\	.	.	.
.	.	12g\J	.	12b-\J	.	.	.
=54	=54	=54	=54	=54	=54	=54	=54
2r	.	12g\L	.	12b-\L	.	4r	.
.	.	12g\	.	12b-\	.	.	.
.	.	12g\J	.	12b-\J	.	.	.
.	.	.	.	.	.	(ffq/	.
.	.	12g\L	.	12b-\L	.	12een\L)	p
.	.	12g\	.	12b-\	.	12dd\	.
.	.	12g\J	.	12b-\J	.	&(12ee\J&)	.
=55	=55	=55	=55	=55	=55	=55	=55
2r	.	4a-\	.	4b-\	.	4ff'\	.
.	.	4a-\	.	4b-\	.	4dd'\	.
=56	=56	=56	=56	=56	=56	=56	=56
4r	.	4a-\	.	4b-\	.	4b-'\	.
(Gq/	.	.	.	.	.	.	.
(12F\L)	p	4a-\	.	4b-\	.	4r	.
12E-\	.	.	.	.	.	.	.
12D\J)	.	.	.	.	.	.	.
=57	=57	=57	=57	=57	=57	=57	=57
4E-'\	.	4g\	.	4b-\	.	2r	.
4G'\	.	4g\	.	4b-\	.	.	.
=58	=58	=58	=58	=58	=58	=58	=58
4B-'\	.	4g\	.	4b-\	.	4r	.
.	.	.	.	.	.	(ffq/	.
4r	.	4g\	.	4b-\	.	12een\L)	.
.	.	.	.	.	.	12dd\	.
.	.	.	.	.	.	&(12ee\J&)	.
=59	=59	=59	=59	=59	=59	=59	=59
2r	.	4a-\	.	4b-\	.	4ff'\	.
.	.	4a-\	.	4b-\	.	4dd'\	.
=60	=60	=60	=60	=60	=60	=60	=60
4r	.	4a-\	.	4b-\	.	4b-'\	.
(Gq/	.	.	.	.	.	.	.
(12F\L)	.	4a-\	.	4b-\	.	4r	.
12E-\	.	.	.	.	.	.	.
12D\J)	.	.	.	.	.	.	.
=61	=61	=61	=61	=61	=61	=61	=61
4E-'\	.	4g\	.	4b-\	.	2r	.
4G'\	.	4g\	.	4b-\	.	.	.
=62	=62	=62	=62	=62	=62	=62	=62
4B-\	.	4g\	.	4b-\	.	4r	.
(A-q/	.	a-q/	.	aa-q/	.	aa-q/	.
12G\L	f	(12g\L	f	(12gg\L	f	(12gg\L	f
12F#\	.	12f#\	.	12ff#\	.	12ff#\	.
12G\J)	.	12g\J)	.	12gg\J)	.	12gg\J)	.
=63	=63	=63	=63	=63	=63	=63	=63
4e-'\	.	4e-'\	.	4ee-'\	.	4ee-'\	.
4c'\	.	4c'\	.	4cc'\	.	4cc'\	.
=64	=64	=64	=64	=64	=64	=64	=64
4G'\	.	4G'/	.	4g'/	.	4g'/	.
(8E-\L	.	(8E-/L	.	(8e-/L	.	(8e-/L	.
8C\J)	.	8C/J)	.	8c/J)	.	8c/J)	.
=65	=65	=65	=65	=65	=65	=65	=65
2F\	.	12F/L	.	2An/	.	2An/	.
.	.	12F/	.	.	.	.	.
.	.	12F/J	.	.	.	.	.
.	.	12F/L	.	.	.	.	.
.	.	12F/	.	.	.	.	.
.	.	12F/J	.	.	.	.	.
=66	=66	=66	=66	=66	=66	=66	=66
2r	.	4F/	.	4r	.	4r	.
.	.	.	.	.	.	ee-q/	.
.	.	4F/	.	(12bn/L	.	(12dd\L	p
.	.	.	.	12an/	p	12cc\	.
.	.	.	.	12b/J)	.	12dd\J)	.
=67	=67	=67	=67	=67	=67	=67	=67
2r	.	4F/	.	8cc'\	.	8ee-'\	.
.	.	.	.	8r	.	8r	.
.	.	4F/	.	8ee-'\	.	8gg'\	.
.	.	.	.	8r	.	8r	.
=68	=68	=68	=68	=68	=68	=68	=68
2r	.	4F/	.	4an/	.	4cc\	.
.	.	4F/	.	4r	.	4r	.
=69	=69	=69	=69	=69	=69	=69	=69
2F\	.	4F/	.	2An/ 2f/	.	2An/ 2f/	.
.	.	4F/	.	.	.	.	.
=70	=70	=70	=70	=70	=70	=70	=70
2r	.	4F/	.	4r	.	4r	.
.	.	.	.	.	.	ee-q/	.
.	.	4F/	.	12bn/L	p	(12dd\L	p
.	.	.	.	12an/	.	12cc\	.
.	.	.	.	12b/J	.	12dd\J)	.
=71	=71	=71	=71	=71	=71	=71	=71
2r	.	4F/	.	8cc'\	.	8ee-'\	.
.	.	.	.	8r	.	8r	.
.	.	4F/	.	8ee-'\	.	8gg'\	.
.	.	.	.	8r	.	8r	.
=72	=72	=72	=72	=72	=72	=72	=72
2r	.	4F/	.	4an/	.	4cc\	.
.	.	4E-/	.	4r	.	4r	.
=73	=73	=73	=73	=73	=73	=73	=73
2D\	.	2D/	.	2B-/ 2f/ 2b-/	.	2b-\ 2ff\	.
=74	=74	=74	=74	=74	=74	=74	=74
2E-\	.	2E-/	.	2G/ 2e-/ 2ee-/	.	2b-\ 2gg\	.
=75	=75	=75	=75	=75	=75	=75	=75
2r	.	2r	.	2r	.	4r	.
.	.	.	.	.	.	(8gg\L	.
.	.	.	.	.	.	8ff\J)	.
=76	=76	=76	=76	=76	=76	=76	=76
2r	.	2r	.	2r	.	(8ff\L	.
.	.	.	.	.	.	8ee-\)	.
.	.	.	.	.	.	(8dd\	.
.	.	.	.	.	.	8cc\J)	.
=77	=77	=77	=77	=77	=77	=77	=77
[2F\	p	(2d\	p	(2f/	.	(2b-\	.
=78	=78	=78	=78	=78	=78	=78	=78
(2F\]	.	2e-\	.	2an/	p	4dd\	.
.	.	.	.	.	.	4cc\)	.
=79	=79	=79	=79	=79	=79	=79	=79
4BB-/)	.	4d\)	.	4b-\)	.	4b-\	.
4r	.	(4d\	.	(4f/	.	4r	.
=80	=80	=80	=80	=80	=80	=80	=80
2r	.	4c#\	.	4en/	.	4r	.
.	.	.	.	.	.	(ggq/	.
.	.	4cn\	.	4e-/	.	12ff\L	p
.	.	.	.	.	.	12een\	.
.	.	.	.	.	.	12ff\J)	.
=81	=81	=81	=81	=81	=81	=81	=81
4BB-/	.	4B-/)	.	4d/)	.	(2dd\	.
4r	.	8B-/L	pp	8d'/L	.	.	.
.	.	8B-'/J	.	8d'/J	.	.	.
=82	=82	=82	=82	=82	=82	=82	=82
2r	.	8d'\L	.	8f'/L	.	2ff\)	.
.	.	8d'\	.	8f'/	.	.	.
.	.	8B-'\	.	8d'/	.	.	.
.	.	8B-'\J	.	8d'/J	.	.	.
=83	=83	=83	=83	=83	=83	=83	=83
4BB-/	.	4r	.	4r	.	(4ccc\	.
4r	.	8B-'/L	.	8d'/L	.	8bb-\)	.
.	.	8B-'/J	.	8d'/J	.	8r	.
=84	=84	=84	=84	=84	=84	=84	=84
2r	.	8d'\L	.	8f'/L	.	4r	.
.	.	8d'\	.	8f'/	.	.	.
.	.	.	.	.	.	(ee-q/	.
.	.	8B-'\	.	8d'/	.	(12dd\L)	.
.	.	.	.	.	.	12cc\	.
.	.	8B-'\J	.	8d'/J	.	.	.
.	.	.	.	.	.	12dd\J)	.
=85	=85	=85	=85	=85	=85	=85	=85
4E-\	.	4r	.	4r	.	(2cc\	.
4r	.	8g'\L	.	8e-'/L	.	.	.
.	.	8g'\J	.	8e-'/J	.	.	.
=86	=86	=86	=86	=86	=86	=86	=86
2r	.	8e-'\L	.	8g'/L	.	2ee-\)	.
.	.	8e-'\	.	8g'/	.	.	.
.	.	8c'\	.	8e-'/	.	.	.
.	.	8c'\J	.	8e-'/J	.	.	.
=87	=87	=87	=87	=87	=87	=87	=87
4E-\	.	4r	.	4r	.	(4aan\	.
4r	.	8c'\L	.	8e-'/L	.	8gg\)	.
.	.	8c'\J	.	8e-'/J	.	8r	.
=88	=88	=88	=88	=88	=88	=88	=88
2r	.	8e-'\L	.	8g'/L	.	4r	.
.	.	8e-'\	.	8g'/	.	.	.
.	.	.	.	.	.	(ddq/	.
.	.	8g'\	.	8e-'/	.	(12cc\L)	.
.	.	.	.	.	.	12bn\	.
.	.	8g'\J	.	8e-'/J	.	.	.
.	.	.	.	.	.	12cc\J)	.
=89	=89	=89	=89	=89	=89	=89	=89
4F\	.	4r	.	4r	.	(2an/	.
4r	.	8f'\L	.	8c'/L	.	.	.
.	.	8f'\J	.	8c'/J	.	.	.
=90	=90	=90	=90	=90	=90	=90	=90
2r	.	8c'/L	.	8f'/L	.	2cc\)	.
.	.	8c'/	.	8f'/	.	.	.
.	.	8An'/	.	8c'/	.	.	.
.	.	8A'/J	.	8c'/J	.	.	.
=91	=91	=91	=91	=91	=91	=91	=91
4FF/	.	4r	.	4r	.	(4gg\	.
4r	.	8An'/L	.	8c'/L	.	8ff\)	.
.	.	8A'/J	.	8c'/J	.	8r	.
=92	=92	=92	=92	=92	=92	=92	=92
2r	.	8c'/L	.	8f'/L	.	4r	.
.	.	8c'/	.	8f'/	.	.	.
.	.	.	.	.	.	(ggq/	.
.	.	8An'/	.	8c'/	.	(12ff\L)	.
.	.	.	.	.	.	12een\	.
.	.	8A'/J	.	8c'/J	.	.	.
.	.	.	.	.	.	12ff\J)	.
=93	=93	=93	=93	=93	=93	=93	=93
4BB-/	.	4r	.	4r	.	2dd\	.
4r	.	8F'/L	.	8B-'/L	.	.	.
.	.	8F'/J	.	8B-'/J	.	.	.
=94	=94	=94	=94	=94	=94	=94	=94
4F\	.	4r	.	4r	.	2ff\	.
4r	.	8An'/L	.	8c'/L	.	.	.
.	.	8A'/J	.	8c'/J	.	.	.
=95	=95	=95	=95	=95	=95	=95	=95
4B-\	.	8B-'/L	.	8d'/L	.	4bb-\	.
.	.	8D'/	.	8B-'/	.	.	.
4r	.	8F'/	.	8c'/	.	4ccc\	.
.	.	8F'/J	.	8c'/J	.	.	.
=96	=96	=96	=96	=96	=96	=96	=96
2r	.	4B-/	.	4d/	.	4ddd\	.
.	.	.	.	.	.	(ggq/	.
.	.	4r	.	4r	.	(12ff\L)	.
.	.	.	.	.	.	12een\	.
.	.	.	.	.	.	12ff\J)	.
=97	=97	=97	=97	=97	=97	=97	=97
4BB-/	.	4r	.	4r	.	(2dd\	.
4r	.	8B-'/L	.	8d/L	.	.	.
.	.	8B-'/J	.	8d'/J	.	.	.
=98	=98	=98	=98	=98	=98	=98	=98
2r	.	8d'\L	.	8f'/L	.	2ff\)	.
.	.	8d'\	.	8f'/	.	.	.
.	.	8B-'\	.	8d'/	.	.	.
.	.	8B-'\J	.	8d'/J	.	.	.
=99	=99	=99	=99	=99	=99	=99	=99
4BB-/	.	4r	.	4r	.	(4ccc\	.
4r	.	8B-'/L	.	8d'/L	.	8bb-\)	.
.	.	8B-'/J	.	8d'/J	.	8r	.
=100	=100	=100	=100	=100	=100	=100	=100
2r	.	8d'\L	.	8f'/L	.	4r	.
.	.	8d'\	.	8f'/	.	.	.
.	.	.	.	.	.	(ee-q/	.
.	.	8B-'\	.	8d'/	.	(12dd\L)	.
.	.	.	.	.	.	12cc\	.
.	.	8B-'\J	.	8d'/J	.	.	.
.	.	.	.	.	.	12dd\J)	.
=101	=101	=101	=101	=101	=101	=101	=101
4E-\	.	4r	.	4r	.	(2cc\	.
4r	.	8g'\L	.	8e-'/L	.	.	.
.	.	8g'\J	.	8e-'/J	.	.	.
=102	=102	=102	=102	=102	=102	=102	=102
2r	.	8e-'\L	.	8g'/L	.	2ee-\)	.
.	.	8e-'\	.	8g'/	.	.	.
.	.	8c'\	.	8e-'/	.	.	.
.	.	8c'\J	.	8e-'/J	.	.	.
=103	=103	=103	=103	=103	=103	=103	=103
4E-\	.	4r	.	4r	.	(4aan\	.
4r	.	8c'\L	.	8e-'/L	.	8gg\)	.
.	.	8c'\J	.	8e-'/J	.	8r	.
=104	=104	=104	=104	=104	=104	=104	=104
2r	.	8e-'\L	.	8g'/L	.	4r	.
.	.	8e-'\	.	8g'/	.	.	.
.	.	.	.	.	.	(ddq/	.
.	.	8g'\	.	8e-'/	.	(12cc\L)	.
.	.	.	.	.	.	12bn\	.
.	.	8g'\J	.	8e-'/J	.	.	.
.	.	.	.	.	.	12cc\J)	.
=105	=105	=105	=105	=105	=105	=105	=105
4F\	.	4r	.	4r	.	(2an/	.
4r	.	8f'\L	.	8c'/L	.	.	.
.	.	8f'\J	.	8c'/J	.	.	.
=106	=106	=106	=106	=106	=106	=106	=106
2r	.	8c'/L	.	8f'/L	.	2cc\)	.
.	.	8c'/	.	8f'/	.	.	.
.	.	8An'/	.	8c'/	.	.	.
.	.	8A'/J	.	8c'/J	.	.	.
=107	=107	=107	=107	=107	=107	=107	=107
4F\	.	4r	.	4r	.	(4gg\	.
4r	.	8An'/L	.	8c'/L	.	8ff\)	.
.	.	8A'/J	.	8c'/J	.	8r	.
=108	=108	=108	=108	=108	=108	=108	=108
2r	.	8c'/L	.	8f'/L	.	4r	.
.	.	8c'/	.	8f'/	.	.	.
.	.	.	.	.	.	(ggq/	.
.	.	8An'/	.	8c'/	.	(12ff\L)	.
.	.	.	.	.	.	12een\	.
.	.	8A'/J	.	8c'/J	.	.	.
.	.	.	.	.	.	12ff\J)	.
=109	=109	=109	=109	=109	=109	=109	=109
4BB-/	.	4r	.	4r	.	(2dd\	.
4r	.	8F'/L	.	8B-'/L	.	.	.
.	.	8F'/J	.	8B-'/J	.	.	.
=110	=110	=110	=110	=110	=110	=110	=110
4F\	.	4r	.	4r	.	2ff\)	.
4r	.	8An'/L	.	8c'/L	.	.	.
.	.	8A'/J	.	8c'/J	.	.	.
=111	=111	=111	=111	=111	=111	=111	=111
4BB-/	.	8B-'/L	.	8B-'/L	.	8bb-\	.
.	.	8D'/	.	8B-'/	.	8r	.
4r	.	8F'/	.	8c'/	.	8ccc\	.
.	.	8F'/J	.	8c'/J	.	8r	.
=112	=112	=112	=112	=112	=112	=112	=112
2r	.	4B-/	.	4d/	.	4ddd\	.
.	.	.	.	.	.	(cccq/	.
.	.	4r	.	4r	.	(12bb-\L)	.
.	.	.	.	.	.	12aan\	.
.	.	.	.	.	.	12bb-\J)	.
=113	=113	=113	=113	=113	=113	=113	=113
(2e-\	.	[2f\	.	(4.cc\	.	(4.aan\	.
.	.	.	.	8an/)	.	8ccc\)	.
=114	=114	=114	=114	=114	=114	=114	=114
4d\)	.	4f\]	.	4b-\	.	4bb-\	.
.	.	.	.	.	.	(cccq/	.
4r	.	4r	.	4r	.	(12bb-\L)	.
.	.	.	.	.	.	12aan\	.
.	.	.	.	.	.	12bb-\J)	.
=115	=115	=115	=115	=115	=115	=115	=115
(2e-\	.	[2f\	.	(4.cc\	.	(4.aan\	.
.	.	.	.	8an/)	.	8ccc\)	.
=116	=116	=116	=116	=116	=116	=116	=116
4d\)	.	4f\]	.	4b-\	.	4bb-\	.
.	.	.	.	.	.	(cccq/	.
4r	.	4r	.	4r	.	(12bb-\L)	.
.	.	.	.	.	.	12aan\	.
.	.	.	.	.	.	12bb-\J)	.
=117	=117	=117	=117	=117	=117	=117	=117
4G\	.	4e-\	.	4e-/	.	4eee-\	.
.	.	.	.	.	.	(cccq/	.
4r	.	4r	.	4r	.	(12bb-\L)	.
.	.	.	.	.	.	12aan\	.
.	.	.	.	.	.	12bb-\J)	.
=118	=118	=118	=118	=118	=118	=118	=118
4B-\	.	4B-/	.	4f/	.	4ddd\	.
.	.	.	.	.	.	(cccq/	.
4r	.	4r	.	4r	.	(12bb-\L)	.
.	.	.	.	.	.	12aan\	.
.	.	.	.	.	.	12bb-\J)	.
=119	=119	=119	=119	=119	=119	=119	=119
4F\	.	4c\	.	4an/	.	4ccc\	.
4F\	.	4c\	.	4a/	.	8.ddd\L	.
.	.	.	.	.	.	16eee-\Jk	.
=120	=120	=120	=120	=120	=120	=120	=120
4D\	.	4B-/	.	4b-\	.	4bb-\	.
.	.	.	.	.	.	(cccq/	.
4r	.	4r	.	4r	.	(12bb-\L)	.
.	.	.	.	.	.	12aan\	.
.	.	.	.	.	.	12bb-\J)	.
=121	=121	=121	=121	=121	=121	=121	=121
4G\	.	4e-\	.	4e-/	.	4eee-\	.
.	.	.	.	.	.	(cccq/	.
4r	.	4r	.	4r	.	(12bb-\L)	.
.	.	.	.	.	.	12aan\	.
.	.	.	.	.	.	12bb-\J)	.
=122	=122	=122	=122	=122	=122	=122	=122
4B-\	.	4B-/	.	4f/	.	4ddd\	.
.	.	.	.	.	.	(cccq/	.
4r	.	4r	.	4r	.	(12bb-\L)	.
.	.	.	.	.	.	12aan\	.
.	.	.	.	.	.	12bb-\J)	.
=123	=123	=123	=123	=123	=123	=123	=123
4F\	.	4c\	.	4an/	.	4ccc\	.
4F\	.	4c\	.	4a/	.	8.ccc\L	.
.	.	.	.	.	.	16ddd\Jk	.
=124	=124	=124	=124	=124	=124	=124	=124
4D\	.	4B-/	.	4b-\	.	4bb-\	.
.	.	.	.	.	.	(ccq/	.
4r	.	4r	.	4r	.	12b-/L)	.
.	.	.	.	.	.	12an/	.
.	.	.	.	.	.	&(12b-/J&)	.
=125	=125	=125	=125	=125	=125	=125	=125
2e-\	pp	[2g\	pp	(2b-\	pp	(2gg\	pp
=126	=126	=126	=126	=126	=126	=126	=126
2d\	.	2g\_	.	2bn\	.	2ff\)	.
=127	=127	=127	=127	=127	=127	=127	=127
2c\	.	2g\]	.	2cc\)	.	(4ff\	.
.	.	.	.	.	.	4ee-\)	.
=128	=128	=128	=128	=128	=128	=128	=128
4r	.	4r	.	4r	.	4r	.
(4e-\	.	[4f\	.	(4an/	.	(4cc\	.
=129	=129	=129	=129	=129	=129	=129	=129
2d\	.	2f\_	.	2b-\	.	2ff\	.
=130	=130	=130	=130	=130	=130	=130	=130
2c\	.	2f\_	.	2an/	.	2ee-\)	.
=131	=131	=131	=131	=131	=131	=131	=131
2B-\)	.	2f\]	.	2b-\)	.	(4ee-\	.
.	.	.	.	.	.	4dd\)	.
=132	=132	=132	=132	=132	=132	=132	=132
4r	.	4r	.	4r	.	4r	.
(4F\	.	[4G/	.	(4bn\	.	(4dd\	.
=133	=133	=133	=133	=133	=133	=133	=133
8E-\)	.	8G/]	.	8cc\)	.	8cc\	.
8r	.	8r	.	8r	.	8r	.
4r	.	4r	.	4r	.	12gg\L	.
.	.	.	.	.	.	12aa-\	.
.	.	.	.	.	.	12ff#\J	.
=134	=134	=134	=134	=134	=134	=134	=134
4r	.	4r	.	4r	.	4gg\	.
(4F\	.	(4Bn/	.	[4g/	.	4dd\	.
=135	=135	=135	=135	=135	=135	=135	=135
8E-\)	.	8c\)	.	4g/]	.	8cc\	.
8r	.	8r	.	.	.	8r	.
4r	.	4r	.	4r	.	12gg\L	.
.	.	.	.	.	.	12aa-\	.
.	.	.	.	.	.	12ff#\J	.
=136	=136	=136	=136	=136	=136	=136	=136
2r	.	4r	.	4r	.	8gg\	.
.	.	.	.	.	.	8r	.
.	.	12a-\L	.	4bn\	.	4dd\	.
.	.	12g\	.	.	.	.	.
.	.	12f\J	.	.	.	.	.
=137	=137	=137	=137	=137	=137	=137	=137
2r	.	8e-\	.	8cc\	.	&(8cc\&)	.
.	.	8r	.	8r	.	8r	.
.	.	8d\	.	8bn\	.	8dd\	.
.	.	8r	.	8r	.	8r	.
=138	=138	=138	=138	=138	=138	=138	=138
2r	.	8c\	.	8cc\	.	8ee-\	.
.	.	8r	.	8r	.	8r	.
.	.	8B-/	.	8dd\	.	8ff\	.
.	.	8r	.	8r	.	8r	.
=139	=139	=139	=139	=139	=139	=139	=139
[2E-\	.	(2An/	.	2cc\	.	[2gg\	.
=140	=140	=140	=140	=140	=140	=140	=140
(2E-\]	.	[2an\)	.	2cc#\	.	2gg\_	.
=141	=141	=141	=141	=141	=141	=141	=141
[2D\)	.	2a\_	.	[2dd\	.	2gg\]	.
=142	=142	=142	=142	=142	=142	=142	=142
2D\]	.	2a\]	.	2dd\]	.	&(2ff#\&)	.
=143	=143	=143	=143	=143	=143	=143	=143
[2GG/	p	[2d\	p	[2bn\	p	[2ff\	p
=144	=144	=144	=144	=144	=144	=144	=144
2GG/]	.	2d\]	.	2b\]	.	4ff\]	.
.	.	.	.	.	.	&(4gg\&)	.
=145	=145	=145	=145	=145	=145	=145	=145
[2C/	.	(2c\	.	[2cc\	.	2ff\	.
=146	=146	=146	=146	=146	=146	=146	=146
2C/]	.	2g\)	.	2cc\]	.	&(2een\&)	.
=147	=147	=147	=147	=147	=147	=147	=147
[2FF/	.	(2c\	.	[2an/	.	[2ee-\	.
=148	=148	=148	=148	=148	=148	=148	=148
2FF/]	.	[2f\)	.	2a/]	.	4ee-\]	.
.	.	.	.	.	.	&(4ff\&)	.
=149	=149	=149	=149	=149	=149	=149	=149
(2BB-/	.	(2f\]	.	(2b-\	.	4ee-\	.
.	.	.	.	.	.	&(4dd\&)	.
=150	=150	=150	=150	=150	=150	=150	=150
2EE-/)	.	(8Bn\L)	.	2g/)	.	8ff\L	.
.	.	8c\	.	.	.	8ee-\J	.
.	.	8d\	.	.	.	8dd\L	.
.	.	8e-\J)	.	.	.	&(8cc\J&)	.
=151	=151	=151	=151	=151	=151	=151	=151
4FF/	.	4d\	.	4f/	.	4b-\	.
4r	.	4r	.	4r	.	4r	.
=152	=152	=152	=152	=152	=152	=152	=152
.	.	.	.	.	.	ddq/	.
4F\	.	4e-\	.	4an/	.	&(4cc\&)	.
4r	.	4r	.	4r	.	4r	.
=153	=153	=153	=153	=153	=153	=153	=153
4BB-'/	f	4d'\	f	12b-\L	f	12b-\L	f
.	.	.	.	12dd\	.	12ff\	.
.	.	.	.	12dd\J	.	12ff\J	.
4B-'\	.	4B-'/	.	12dd\L	.	12ff\L	.
.	.	.	.	12dd\	.	12ff\	.
.	.	.	.	12dd\J	.	12ff\J	.
=154	=154	=154	=154	=154	=154	=154	=154
4r	.	4r	.	4dd\	.	4ff\	.
(12d\L	.	(12dd\L	.	4dd\	.	4ff\	.
12c\	.	12cc\	.	.	.	.	.
12B-\J)	.	12b-\J)	.	.	.	.	.
=155	=155	=155	=155	=155	=155	=155	=155
4An'\	.	4an'\	.	4ee-\	.	4ff\	.
4F'\	.	4f'\	.	4ee-\	.	4ff\	.
=156	=156	=156	=156	=156	=156	=156	=156
2r	.	2r	.	4ee-\	.	4ff\	.
.	.	.	.	4ee-\	.	12aan\L	.
.	.	.	.	.	.	12gg\	.
.	.	.	.	.	.	&(12ff\J&)	.
=157	=157	=157	=157	=157	=157	=157	=157
4BB-'/	.	4B-'/	.	4f/ 4dd/	.	12bb-\L	.
.	.	.	.	.	.	12ff\	.
.	.	.	.	.	.	12ff\J	.
4B-'\	.	4b-'\	.	4f/ 4dd/	.	4ff\	.
=158	=158	=158	=158	=158	=158	=158	=158
4r	.	4r	.	4f/ 4dd/	.	4ff\	.
(12d\L	.	(12dd\L	.	4f/ 4dd/	.	4ff\	.
12c\	.	12cc\	.	.	.	.	.
12B-\J)	.	12b-\J)	.	.	.	.	.
=159	=159	=159	=159	=159	=159	=159	=159
4An'\	.	4an'\	.	4f\ 4ee-\	.	4ff\	.
4F'\	.	4f'\	.	4f\ 4ee-\	.	4ff\	.
=160	=160	=160	=160	=160	=160	=160	=160
2r	.	2r	.	4f\ 4ee-\	.	4ff\	.
.	.	.	.	4f\ 4ee-\	.	12aan\L	.
.	.	.	.	.	.	12gg\	.
.	.	.	.	.	.	&(12ff\J&)	.
=161	=161	=161	=161	=161	=161	=161	=161
4BB-/	.	4B-/	.	4f/ 4dd/	.	4bb-\	.
4d\	.	12dd\L	.	4dd\	.	4ddd\	.
.	.	12dd\	.	.	.	.	.
.	.	12dd\J	.	.	.	.	.
=162	=162	=162	=162	=162	=162	=162	=162
4G\	.	4b-\	.	4g/	.	4gg\	.
4B-\	.	4dd\	.	4b-\	.	4bb-\	.
=163	=163	=163	=163	=163	=163	=163	=163
4E-\	.	4g\	.	4e-/	.	4ee-\	.
4G\	.	4b-\	.	4g/	.	4gg\	.
=164	=164	=164	=164	=164	=164	=164	=164
4C/	.	4e-\	.	4c/	.	4cc\	.
4E-\	.	4g\	.	4e-/	.	4ee-\	.
=165	=165	=165	=165	=165	=165	=165	=165
4AAn/	.	4An/	.	4An/	.	4an/	.
4r	.	4r	.	4r	.	4r	.
=166	=166	=166	=166	=166	=166	=166	=166
4An\	ff	4an\	ff	4cc\	ff	4ee-\ 4gg\	ff
4r	.	4r	.	4r	.	4r	.
=167	=167	=167	=167	=167	=167	=167	=167
2r	.	2r	.	2r	.	2r	.
=168	=168	=168	=168	=168	=168	=168	=168
2r	.	4r	.	4r	.	4r	.
.	.	(4an^\	.	(4ee-^\	p	4gg^\	p
=169	=169	=169	=169	=169	=169	=169	=169
2r	.	8b-\)	p	8dd\)	.	&(8ff\&)	.
.	.	8r	.	8r	.	8r	.
.	.	4r	.	4r	.	12bb-\L	.
.	.	.	.	.	.	12aan\	.
.	.	.	.	.	.	&(12bb-\J&)	.
=170	=170	=170	=170	=170	=170	=170	=170
2r	.	2r	.	2r	.	4ddd\	.
.	.	.	.	.	.	4r	.
=171	=171	=171	=171	=171	=171	=171	=171
4BB-/	.	2r	.	2r	.	2r	.
4r	.	.	.	.	.	.	.
=172	=172	=172	=172	=172	=172	=172	=172
2r	.	4r	.	4r	.	4r	.
.	.	(4an^\	.	(4ee-^\	.	4gg^\	.
=173	=173	=173	=173	=173	=173	=173	=173
2r	.	8b-\)	.	8dd\)	.	&(8ff\&)	.
.	.	8r	.	8r	.	8r	.
.	.	4r	.	4r	.	12bb-\L	.
.	.	.	.	.	.	12aan\	.
.	.	.	.	.	.	&(12bb-\J&)	.
=174	=174	=174	=174	=174	=174	=174	=174
2r	.	4r	.	4r	.	4ddd\	.
.	.	(4an^\	.	(4ee-^\	.	4gg^\	.
=175	=175	=175	=175	=175	=175	=175	=175
2r	.	8b-\)	.	8dd\)	.	8ff\	.
.	.	8r	.	8r	.	8r	.
.	.	4r	.	4r	.	12bb-\L	.
.	.	.	.	.	.	12aan\	.
.	.	.	.	.	.	12bb-\J	.
=176	=176	=176	=176	=176	=176	=176	=176
2r	.	2r	.	2r	.	8ddd'\	.
.	.	.	.	.	.	8r	.
.	.	.	.	.	.	8ff'\	.
.	.	.	.	.	.	8r	.
=177	=177	=177	=177	=177	=177	=177	=177
2r	.	2r	.	2r	.	8bb-'\	.
.	.	.	.	.	.	8r	.
.	.	.	.	.	.	8dd'\	.
.	.	.	.	.	.	8r	.
=178	=178	=178	=178	=178	=178	=178	=178
4r	.	4r	.	4r	.	8ff'\	.
.	.	.	.	.	.	8r	.
(4En^\	.	(4c#^\	.	(4b-^\	.	4gg^\	.
=179	=179	=179	=179	=179	=179	=179	=179
[2F\)	.	(2d\)	.	(2f/)	.	2b-\	.
=180	=180	=180	=180	=180	=180	=180	=180
.	.	.	.	.	.	ddq/	.
2F\]	.	2e-\)	.	2an/)	.	8cc/L	.
.	.	.	.	.	.	8b-/	.
.	.	.	.	.	.	8cc/	.
.	.	.	.	.	.	8dd/J	.
=181	=181	=181	=181	=181	=181	=181	=181
4BB-/	.	4d\	.	4b-\	.	4b-\	.
4r	.	4r	.	(12b-/L	.	12bb-\L	.
.	.	.	.	12an/	.	12aan\	.
.	.	.	.	12b-/J)	.	12bb-\J	.
=182	=182	=182	=182	=182	=182	=182	=182
2r	.	2r	.	8dd'\	.	8ddd'\	.
.	.	.	.	8r	.	8r	.
.	.	.	.	8f'/	.	8ff'\	.
.	.	.	.	8r	.	8r	.
=183	=183	=183	=183	=183	=183	=183	=183
2r	.	2r	.	8b-'\	.	8bb-'\	.
.	.	.	.	8r	.	8r	.
.	.	.	.	8d'/	.	8dd'\	.
.	.	.	.	8r	.	8r	.
=184	=184	=184	=184	=184	=184	=184	=184
4r	.	4r	.	8f'/	.	8ff'\	.
.	.	.	.	8r	.	8r	.
4En\	.	4c#\	.	(4b-\	.	4gg\	.
=185	=185	=185	=185	=185	=185	=185	=185
[2F\	.	(2c#\	.	(2f/)	.	2b-\	.
=186	=186	=186	=186	=186	=186	=186	=186
.	.	.	.	.	.	ddq/	.
2F\]	.	2e-\)	.	2an/)	.	8cc/L	.
.	.	.	.	.	.	8b-/	.
.	.	.	.	.	.	8cc/	.
.	.	.	.	.	.	8dd/J	.
=187	=187	=187	=187	=187	=187	=187	=187
4BB-/	.	12d\L	.	12b-/L	.	8b-\	.
.	.	12d\	.	12f/	pp	.	.
.	.	.	.	.	.	8r	.
.	.	12d\J	.	12f/J	.	.	.
4r	pp	12d\L	.	12f/L	.	12ddd\L	.
.	.	12d\	.	12f/	.	12ccc\	pp
.	.	12d\J	.	12f/J	.	12bb-\J	.
=188	=188	=188	=188	=188	=188	=188	=188
4FF/	.	4e-\	.	4f/	.	8aan'\	.
.	.	.	.	.	.	8r	.
4r	.	4e-\	.	4f/	.	12f/L	.
.	.	.	.	.	.	12g/	.
.	.	.	.	.	.	12an/J	.
=189	=189	=189	=189	=189	=189	=189	=189
4BB-/	.	4d\	.	4f/	.	8b-'\	.
.	.	.	.	.	.	8r	.
4r	.	4d\	.	4f/	.	12ddd\L	.
.	.	.	.	.	.	12ccc\	.
.	.	.	.	.	.	12bb-\J	.
=190	=190	=190	=190	=190	=190	=190	=190
4FF/	.	4e-\	.	4f/	.	8aan\	.
.	.	.	.	.	.	8r	.
4r	.	4e-\	.	4f/	.	12f/L	.
.	.	.	.	.	.	12g/	.
.	.	.	.	.	.	12an/J	.
=191	=191	=191	=191	=191	=191	=191	=191
4BB-/	.	4d\	.	4f/	.	4b-\	.
4r	.	4r	.	4r	.	4r	.
=192	=192	=192	=192	=192	=192	=192	=192
4BB-/	.	4B-/	.	4f/	.	4dd\	.
4r	.	4r	.	4r	.	4r	.
=193	=193	=193	=193	=193	=193	=193	=193
4BB-/	.	4B-/	.	4d/	.	4b-\	.
4r	.	4r	.	4r	.	4r	.
=194	=194	=194	=194	=194	=194	=194	=194
2r	.	2r	.	2r	.	2r	.
=195:|!	=195:|!	=195:|!	=195:|!	=195:|!	=195:|!	=195:|!	=195:|!
*>B	*>B	*>B	*>B	*>B	*>B	*>B	*>B
.	.	.	.	.	.	Gq/	.
.	.	.	.	.	.	gq/	.
[2GG/ [2G/	ff	[2G\ [2g\	ff	[2G/ [2g/	ff	[2g\ [2gg\	ff
=196	=196	=196	=196	=196	=196	=196	=196
4GG/] 4G/]	.	4G\] 4g\]	.	4G/] 4g/]	.	4g\] 4gg\]	.
(12d\L	.	(12dd\L	.	(12dd\L	.	12dd\L	.
12c\	.	12cc\	.	12cc\	.	12cc\	.
12d\J)	.	12dd\J)	.	12dd\J)	.	12dd\J	.
=197	=197	=197	=197	=197	=197	=197	=197
4e-'\	.	4ee-'\	.	4ee-'\	.	4ee-'\	.
(12Bn\L	.	(12bn\L	.	(12bn/L	.	12bn/L	.
12An\	.	12an\	.	12an/	.	12an/	.
12B\J)	.	12b\J)	.	12b/J)	.	12b/J	.
=198	=198	=198	=198	=198	=198	=198	=198
4c'\	.	4cc'\	.	4cc'\	.	4cc'\	.
(12F#\L	.	(12f#\L	.	(12f#/L	.	12f#/L	.
12G\	.	12g\	.	12g/	.	12g/	.
12F#\J)	.	12f#\J)	.	12f#/J)	.	12f#/J	.
=199	=199	=199	=199	=199	=199	=199	=199
[2GG/ [2G/	.	[2G\ [2g\	.	[2G/ [2g/	.	[2G/ [2g/	.
=200	=200	=200	=200	=200	=200	=200	=200
4GG/] 4G/]	.	4G\] 4g\]	.	4G/] 4g/]	.	4G/] 4g/]	.
(12D/L	.	(12d\L	.	(12d/L	.	12d/L	.
12C/	.	12c\	.	12c/	.	12c/	.
12D/J)	.	12d\J)	.	12d/J)	.	12d/J	.
=201	=201	=201	=201	=201	=201	=201	=201
4E-'\	.	4e-'\	.	4e-'/	.	4e-'/	.
(12BBn/L	.	(12Bn/L	.	(12Bn/L	.	12Bn/L	.
12AAn/	.	12An/	.	12An/	.	12An/	.
12BB/J)	.	12B/J)	.	12B/J)	.	12B/J	.
=202	=202	=202	=202	=202	=202	=202	=202
4C'/	.	4c'\	.	4c'/	.	4c'/	.
(12FF#/L	.	(12F#/L	.	(4c/	.	4e-/	.
12GG/	.	12G/	.	.	.	.	.
12FF#/J)	.	12F#/J)	.	.	.	.	.
=203	=203	=203	=203	=203	=203	=203	=203
4GG/	.	4G'/	.	4Bn/)	.	4d/	.
4r	.	4r	.	4r	.	4r	.
=204	=204	=204	=204	=204	=204	=204	=204
4GG/ 4G/	.	4G\ 4g\	.	4G/ 4d/ 4bn/ 4gg/	.	4G/ 4d/ 4bn/ 4gg/	.
4r	.	4r	.	4r	.	4r	.
=205	=205	=205	=205	=205	=205	=205	=205
2r	.	2r	.	2r	.	2r	.
=206	=206	=206	=206	=206	=206	=206	=206
2r	.	2r	.	2r	.	2r	.
=207	=207	=207	=207	=207	=207	=207	=207
4E-\	pp	4E-/	pp	12G/L	pp	12e-/L	.
.	.	.	.	12G/	.	12B-/	.
.	.	.	.	12G/J	.	12B-/J	.
4r	.	4r	.	4G/	.	4B-/	.
=208	=208	=208	=208	=208	=208	=208	=208
2r	.	4r	.	4G/	.	4B-/	.
.	.	(12en\L	pp	4G/	.	4B-/	.
.	.	12d\	.	.	.	.	.
.	.	12e\J)	.	.	.	.	.
=209	=209	=209	=209	=209	=209	=209	=209
2r	.	4f'\	.	4A-/	.	4B-/	.
.	.	4d'\	.	4A-/	.	4B-/	.
=210	=210	=210	=210	=210	=210	=210	=210
4r	.	4B-'/	.	4A-/	.	4B-/	.
(12F\L	pp	4r	.	4A-/	.	4B-/	.
12E-\	.	.	.	.	.	.	.
12D\J)	.	.	.	.	.	.	.
=211	=211	=211	=211	=211	=211	=211	=211
4E-'\	.	4E-'/	.	4G/	.	4B-/	.
4G'\	.	4r	.	4G/	.	4B-/	.
=212	=212	=212	=212	=212	=212	=212	=212
4B-'\	.	4r	.	4G/	.	4B-/	.
4r	.	(12en\L	.	4G/	.	4B-/	.
.	.	12d\	.	.	.	.	.
.	.	12e\J)	.	.	.	.	.
=213	=213	=213	=213	=213	=213	=213	=213
2r	.	4f'\	.	4A-/	.	4B-/	.
.	.	4d'\	.	4A-/	.	4B-/	.
=214	=214	=214	=214	=214	=214	=214	=214
4r	.	4B-'/	.	4A-/	.	4B-/	.
(12GG/L	.	(4F/	.	4G/	.	4Bn/	.
12AA-/	.	.	.	.	.	.	.
12GG/J)	.	.	.	.	.	.	.
=215	=215	=215	=215	=215	=215	=215	=215
4C'/	.	4E-/)	.	12c/L	.	12c/L	.
.	.	.	.	12e-/	.	12g/	.
.	.	.	.	12e-/J	.	12g/J	.
4E-'\	.	4r	.	4e-/	.	4g/	.
=216	=216	=216	=216	=216	=216	=216	=216
4G\	.	4r	.	4e-/	.	4g/	.
4r	.	(12c/L	.	4e-/	.	4g/	.
.	.	12Bn/	.	.	.	.	.
.	.	12c/J)	.	.	.	.	.
=217	=217	=217	=217	=217	=217	=217	=217
2r	.	4d'\	.	4f/	.	4g/	.
.	.	4Bn'/	.	4f/	.	4g/	.
=218	=218	=218	=218	=218	=218	=218	=218
4r	.	4G'/	.	4f/	.	4g/	.
(12GG/L	.	4r	.	4f/	.	4g/	.
12AAn/	.	.	.	.	.	.	.
12BBn/J)	.	.	.	.	.	.	.
=219	=219	=219	=219	=219	=219	=219	=219
4C'/	.	2r	.	4e-/	.	4g/	.
4E-'\	.	.	.	4e-/	.	4g/	.
=220	=220	=220	=220	=220	=220	=220	=220
4G'\	.	4r	.	4e-/	.	4g/	.
4r	.	(12c/L	.	4e-/	.	4g/	.
.	.	12Bn/	.	.	.	.	.
.	.	12c/J)	.	.	.	.	.
=221	=221	=221	=221	=221	=221	=221	=221
2r	.	4d'\	.	4f/	.	4g/	.
.	.	4Bn'/	.	4f/	.	4g/	.
=222	=222	=222	=222	=222	=222	=222	=222
4r	.	4G'/	.	4f/	.	4g/	.
(12E-\L	.	(4d-\	.	4e-/	.	4g/	.
12F\	.	.	.	.	.	.	.
12E-\J)	.	.	.	.	.	.	.
=223	=223	=223	=223	=223	=223	=223	=223
4AA-'/	.	4c\)	.	12e-/L	.	12a-/L	.
.	.	.	.	12c/	.	12e-/	.
.	.	.	.	12c/J	.	12e-/J	.
4C'/	.	4r	.	4c/	.	4e-/	.
=224	=224	=224	=224	=224	=224	=224	=224
4E-'\	.	4r	.	4c/	.	4e-/	.
4r	.	(12A-/L	.	4c/	.	4e-/	.
.	.	12G/	.	.	.	.	.
.	.	12A-/J)	.	.	.	.	.
=225	=225	=225	=225	=225	=225	=225	=225
2r	.	4B-'/	.	4d-/	.	4e-/	.
.	.	4G'/	.	4d-/	.	4e-/	.
=226	=226	=226	=226	=226	=226	=226	=226
4r	.	4E-'/	.	4d-/	.	4e-/	.
(12E-\L	.	4r	.	4d-/	.	4e-/	.
12F\	.	.	.	.	.	.	.
12G\J)	.	.	.	.	.	.	.
=227	=227	=227	=227	=227	=227	=227	=227
4A-'\	.	2r	.	4c/	.	4e-/	.
4C'/	.	.	.	4c/	.	4e-/	.
=228	=228	=228	=228	=228	=228	=228	=228
4E-'\	.	4r	.	4c/	.	4e-/	.
4r	.	(12A-/L	.	4c/	.	4e-/	.
.	.	12G/	.	.	.	.	.
.	.	12A-/J)	.	.	.	.	.
=229	=229	=229	=229	=229	=229	=229	=229
2r	.	4B-'/	.	4d-/	.	4e-/	.
.	.	4G'/	.	4d-/	.	4e-/	.
=230	=230	=230	=230	=230	=230	=230	=230
4r	.	4E-'/	.	4d-/	.	4e-/	.
(12E-\L	.	4r	.	4d-/	.	4e-/	.
12F\	.	.	.	.	.	.	.
12G\J)	.	.	.	.	.	.	.
=231	=231	=231	=231	=231	=231	=231	=231
2A-\	.	2A-/	f	12c/L	.	12e-/L	f
.	.	.	.	12e-/ 12cc/	.	12ee-/	.
.	.	.	.	12e-/J 12cc/	.	12ee-/J	.
.	.	.	.	4e-/ 4cc/	.	4ee-\	.
=232	=232	=232	=232	=232	=232	=232	=232
2G\	.	2G/	.	4e-/ 4cc/	.	4ee-\	.
.	.	.	.	4e-/ 4cc/	.	4ee-\	.
=233	=233	=233	=233	=233	=233	=233	=233
[2F#\	.	[2F#/	.	4e-/ 4cc/	.	4ee-\	.
.	.	.	.	4e-/ 4cc/	.	4ee-\	.
=234	=234	=234	=234	=234	=234	=234	=234
4F#\]	.	4F#/]	.	4e-/ 4cc/	.	4ee-\	.
(12G\L	.	(12G/L	.	4e-/ 4cc/	.	4ee-\	.
12F#\	.	12F#/	.	.	.	.	.
12G\J)	.	12G/J)	.	.	.	.	.
=235	=235	=235	=235	=235	=235	=235	=235
2A-\	.	2A-/	.	12e-/L 12cc/	.	12ee-\L	.
.	.	.	.	12ee-/	.	12ccc\	.
.	.	.	.	12ee-/J	.	12ccc\J	.
.	.	.	.	4ee-\	.	4ccc\	.
=236	=236	=236	=236	=236	=236	=236	=236
2G\	.	2G/	.	4ee-\	.	4ccc\	.
.	.	.	.	4ee-\	.	4ccc\	.
=237	=237	=237	=237	=237	=237	=237	=237
[2F#\	.	[2F#/	.	4ee-\	.	4ccc\	.
.	.	.	.	4ee-\	.	4ccc\	.
=238	=238	=238	=238	=238	=238	=238	=238
4F#\]	.	4F#/]	.	4ee-\	.	4ccc\	.
(12FF#/L	.	(12f#\L	.	4ee-\	.	4ccc\	.
12GG/	.	12g\	.	.	.	.	.
12FF#/J)	.	12f#\J)	.	.	.	.	.
=239	=239	=239	=239	=239	=239	=239	=239
4GG/	.	4g\	.	4dd\	.	4bbn\	.
4r	.	(4bn\	p	(4dd\	p	12gg\L	p
.	.	.	.	.	.	12ff#\	.
.	.	.	.	.	.	12gg\J	.
=240	=240	=240	=240	=240	=240	=240	=240
4r	.	4cc\)	.	4ee-\)	.	4aa-\	.
(4A-^\	f	(4c^\ [4d^\	.	(12cc/L	f	12ccc\L	f
.	.	.	.	12a-/	.	12aa-\	.
.	.	.	.	12f#/J)	.	12ff#\J	.
=241	=241	=241	=241	=241	=241	=241	=241
4G\)	f	4Bn\) 4d\]	.	4g/	.	4gg\	.
4r	.	(4bn\	p	(4dd\	p	12gg\L	.
.	.	.	.	.	.	12ff#\	p
.	.	.	.	.	.	12gg\J	.
=242	=242	=242	=242	=242	=242	=242	=242
4r	.	4cc\)	.	4ee-\)	.	4aa-\	.
(4A-^\	f	(4c^\ [4d^\	f	(12cc/L	.	12ccc\L	f
.	.	.	.	12a-/	f	12aa-\	.
.	.	.	.	12f#/J)	.	12ff#\J	.
=243	=243	=243	=243	=243	=243	=243	=243
4G\)	.	4Bn\) 4d\]	.	4g/	.	4gg\	.
4r	.	(4bn\	p	(4dd\	p	12gg\L	p
.	.	.	.	.	.	12ff#\	.
.	.	.	.	.	.	12gg\J	.
=244	=244	=244	=244	=244	=244	=244	=244
2r	.	8cc\)	.	8ee-\)	.	8aa-\	.
.	.	8r	.	8r	.	8r	.
.	.	(4b-\	.	(4dd\	.	12gg\L	.
.	.	.	.	.	.	12ff#\	.
.	.	.	.	.	.	12gg\J	.
=245	=245	=245	=245	=245	=245	=245	=245
2r	.	8a-\)	.	8cc\)	.	8ff\	.
.	.	8r	.	8r	.	8r	.
.	.	(4b-\	.	(4dd\	.	12gg\L	.
.	.	.	.	.	.	12ff#\	.
.	.	.	.	.	.	12gg\J	.
=246	=246	=246	=246	=246	=246	=246	=246
2r	.	4a-\	.	4cc\	.	8ff\	.
.	.	.	.	.	.	8r	.
.	.	4g\)	.	4b-\)	.	12ee-\L	.
.	.	.	.	.	.	12dd\	.
.	.	.	.	.	.	12ee-\J	.
=247	=247	=247	=247	=247	=247	=247	=247
[2B-\	.	[2f\	.	[2a-/	.	2ee-\	.
=248	=248	=248	=248	=248	=248	=248	=248
2B-\]	p	4f\]	.	4a-/]	.	4dd\	.
.	.	(4e-\	.	(4g/	.	4cc\	.
=249	=249	=249	=249	=249	=249	=249	=249
[2BB-/	.	2d\	.	2f/	.	4b-\	.
.	.	.	.	.	.	4a-/	.
=250	=250	=250	=250	=250	=250	=250	=250
2BB-/]	.	4A-/	.	4d/	.	4f/	.
.	.	4F/)	.	4A-/)	.	4d/	.
=251	=251	=251	=251	=251	=251	=251	=251
[2E-\	.	16E-/LL	.	16G/LL	.	[2G/ [2e-/	.
.	.	16E-/	.	16G/	.	.	.
.	.	16G/	.	16B-/	.	.	.
.	.	16G/JJ	.	16B-/JJ	.	.	.
.	.	16B-/LL	.	16G/LL	.	.	.
.	.	16B-/	.	16G/	.	.	.
.	.	16G/	.	16B-/	.	.	.
.	.	16G/JJ	.	16B-/JJ	.	.	.
=252	=252	=252	=252	=252	=252	=252	=252
4E-\]	.	16B-/LL	.	16G/LL	.	4G/] 4e-/]	.
.	.	16B-/	.	16G/	.	.	.
.	.	16G/	.	16B-/	.	.	.
.	.	16G/JJ	.	16B-/JJ	.	.	.
4r	.	16B-/LL	.	16G/LL	.	4en/	p
.	.	16B-/	.	16G/	.	.	.
.	.	16G/	.	16B-/	.	.	.
.	.	16G/JJ	.	16B-/JJ	.	.	.
=253	=253	=253	=253	=253	=253	=253	=253
4E-\	.	16c/LL	.	16A-/LL	.	8f'/L	.
.	.	16c/	.	16A-/	.	.	.
.	.	16A-/	.	16c/	.	8g'/	.
.	.	16A-/JJ	.	16c/JJ	.	.	.
4r	.	16c/LL	.	16A-/LL	.	8a-'/	.
.	.	16c/	.	16A-/	.	.	.
.	.	16A-/	.	16c/	.	8b-'/J	.
.	.	16A-/JJ	.	16c/JJ	.	.	.
=254	=254	=254	=254	=254	=254	=254	=254
2r	.	16F/LL	.	16A-/LL	.	4cc\	.
.	.	16F/	.	16A-/	.	.	.
.	.	16A-/	.	16c/	.	.	.
.	.	16A-/JJ	.	16c/JJ	.	.	.
.	.	16F/LL	.	16A-/LL	.	4r	.
.	.	16F/	.	16A-/	.	.	.
.	.	16A-/	.	16c/	.	.	.
.	.	16A-/JJ	.	16c/JJ	.	.	.
=255	=255	=255	=255	=255	=255	=255	=255
[2E-\	.	16F/LL	.	16A-/LL	.	[2d/ [2b-/	.
.	.	16F/	.	16A-/	.	.	.
.	.	16A-/	.	16B-/	.	.	.
.	.	16A-/JJ	.	16B-/JJ	.	.	.
.	.	16F/LL	.	16A-/LL	.	.	.
.	.	16F/	.	16A-/	.	.	.
.	.	16A-/	.	16B-/	.	.	.
.	.	16A-/JJ	.	16B-/JJ	.	.	.
=256	=256	=256	=256	=256	=256	=256	=256
4E-\]	.	16F/LL	.	16A-/LL	.	4d/] 4b-/]	.
.	.	16F/	.	16A-/	.	.	.
.	.	16A-/	.	16B-/	.	.	.
.	.	16A-/JJ	.	16B-/JJ	.	.	.
4r	.	16F/LL	.	16A-/LL	.	8cc'\L	p
.	.	16F/	.	16A-/	.	.	.
.	.	16A-/	.	16B-/	.	8dd'\J	.
.	.	16A-/JJ	.	16B-/JJ	.	.	.
=257	=257	=257	=257	=257	=257	=257	=257
4E-\	.	16E-/LL	.	16G/LL	.	8ee-'\L	.
.	.	16E-/	.	16G/	.	.	.
.	.	16F/	.	16A-/	.	8ff'\J	.
.	.	16F/JJ	.	16A-/JJ	.	.	.
4r	.	16E-/LL	.	16G/LL	.	8gg'\L	.
.	.	16E-/	.	16G/	.	.	.
.	.	16F/	.	16A-/	.	8aa-'\J	.
.	.	16F/JJ	.	16A-/JJ	.	.	.
=258	=258	=258	=258	=258	=258	=258	=258
2r	.	16G/LL	.	16B-/LL	.	4bb-\	.
.	.	16G/	.	16B-/	.	.	.
.	.	16G-/	.	16An/	.	.	.
.	.	16G-/JJ	.	16A/JJ	.	.	.
.	.	16Gn/LL	.	16B-/LL	.	4r	.
.	.	16G/	.	16B-/	.	.	.
.	.	16E-/	.	16G/	.	.	.
.	.	16E-/JJ	.	16G/JJ	.	.	.
=259	=259	=259	=259	=259	=259	=259	=259
4BB-/	.	16F/LL	.	16d/LL	.	12aa-\L	.
.	.	16F/	.	16d/	.	.	.
.	.	.	.	.	.	12gg\	.
.	.	16B-/	.	16B-/	.	.	.
.	.	.	.	.	.	12ff\J	.
.	.	16B-/JJ	.	16B-/JJ	.	.	.
4r	.	16A-/LL	.	16d/LL	.	12ff\L	.
.	.	16A-/	.	16d/	.	.	.
.	.	.	.	.	.	12ee-\	.
.	.	16B-/	.	16B-/	.	.	.
.	.	.	.	.	.	12dd\J	.
.	.	16B-/JJ	.	16B-/JJ	.	.	.
=260	=260	=260	=260	=260	=260	=260	=260
2r	.	16G/LL	.	16e-/LL	.	4ee-\	.
.	.	16G/	.	16e-/	.	.	.
.	.	16B-/	.	16B-/	.	.	.
.	.	16B-/JJ	.	16B-/JJ	.	.	.
.	.	16G/LL	.	16e-/LL	.	8b-\	.
.	.	16G/	.	16e-/	.	.	.
.	.	16B-/	.	16B-/	.	8r	.
.	.	16B-/JJ	.	16B-/JJ	.	.	.
=261	=261	=261	=261	=261	=261	=261	=261
4BB-/	.	16F/LL	.	16d/LL	.	12aa-\L	.
.	.	16F/	.	16d/	.	.	.
.	.	.	.	.	.	12gg\	.
.	.	16B-/	.	16B-/	.	.	.
.	.	.	.	.	.	12ff\J	.
.	.	16B-/JJ	.	16B-/JJ	.	.	.
4r	.	16A-/LL	.	16d/LL	.	12ff\L	.
.	.	16A-/	.	16d/	.	.	.
.	.	.	.	.	.	12ee-\	.
.	.	16B-/	.	16B-/	.	.	.
.	.	.	.	.	.	12dd\J	.
.	.	16B-/JJ	.	16B-/JJ	.	.	.
=262	=262	=262	=262	=262	=262	=262	=262
2r	.	16G/LL	.	16e-/LL	.	4ee-\	.
.	.	16G/	.	16e-/	.	.	.
.	.	16B-/	.	16B-/	.	.	.
.	.	16B-/JJ	.	16B-/JJ	.	.	.
.	.	16G/LL	.	16e-/LL	.	8bb-\	.
.	.	16G/	.	16e-/	.	.	.
.	.	16B-/	.	16B-/	.	8r	.
.	.	16B-/JJ	.	16B-/JJ	.	.	.
=263	=263	=263	=263	=263	=263	=263	=263
4BB-/	.	16F/LL	.	16d/LL	.	12aa-\L	.
.	.	16F/	.	16d/	.	.	.
.	.	.	.	.	.	12gg\	.
.	.	16B-/	.	16B-/	.	.	.
.	.	.	.	.	.	12ff\J	.
.	.	16B-/JJ	.	16B-/JJ	.	.	.
4r	.	16A-/LL	.	16d/LL	.	12ff\L	.
.	.	16A-/	.	16d/	.	.	.
.	.	.	.	.	.	12ee-\	.
.	.	16B-/	.	16B-/	.	.	.
.	.	.	.	.	.	12dd\J	.
.	.	16B-/JJ	.	16B-/JJ	.	.	.
=264	=264	=264	=264	=264	=264	=264	=264
2r	.	16G/LL	.	16e-/LL	.	4ee-\	.
.	.	16G/	.	16e-/	.	.	.
.	.	16B-/	.	16B-/	.	.	.
.	.	16B-/JJ	.	16B-/JJ	.	.	.
.	.	16G/LL	.	16e-/LL	.	8b-\	.
.	.	16G/	.	16e-/	.	.	.
.	.	16B-/	.	16B-/	.	8r	.
.	.	16B-/JJ	.	16B-/JJ	.	.	.
=265	=265	=265	=265	=265	=265	=265	=265
4BB-/	.	16F/LL	.	16d/LL	.	12aa-\L	.
.	.	16F/	.	16d/	.	.	.
.	.	.	.	.	.	12bb-\	.
.	.	16B-/	.	16B-/	.	.	.
.	.	.	.	.	.	12ccc\J	.
.	.	16B-/JJ	.	16B-/JJ	.	.	.
4r	.	16A-/LL	.	16d/LL	.	12ff\L	.
.	.	16A-/	.	16d/	.	.	.
.	.	.	.	.	.	12gg\	.
.	.	16B-/	.	16B-/	.	.	.
.	.	.	.	.	.	12aa-\J	.
.	.	16B-/JJ	.	16B-/JJ	.	.	.
=266	=266	=266	=266	=266	=266	=266	=266
4EE-/	.	16E-/LL	.	16e-/LL	.	4gg\	.
.	.	16E-/	.	16e-/	.	.	.
.	.	16B-/	.	16B-/	.	.	.
.	.	16B-/JJ	.	16B-/JJ	.	.	.
4r	.	16G/LL	.	16e-/LL	.	8bb-\	.
.	.	16G/	.	16e-/	.	.	.
.	.	16B-/	.	16B-/	.	8r	.
.	.	16B-/JJ	.	16B-/JJ	.	.	.
=267	=267	=267	=267	=267	=267	=267	=267
[2E-\	.	16E-/LL	.	16G/LL	.	[2G/ [2e-/	.
.	.	16E-/	.	16G/	.	.	.
.	.	16G/	.	16B-/	.	.	.
.	.	16G/JJ	.	16B-/JJ	.	.	.
.	.	16B-/LL	.	16G/LL	.	.	.
.	.	16B-/	.	16G/	.	.	.
.	.	16G/	.	16B-/	.	.	.
.	.	16G/JJ	.	16B-/JJ	.	.	.
=268	=268	=268	=268	=268	=268	=268	=268
4E-\]	.	16B-/LL	.	16G/LL	.	4G/] 4e-/]	.
.	.	16B-/	.	16G/	.	.	.
.	.	16G/	.	16B-/	.	.	.
.	.	16G/JJ	.	16B-/JJ	.	.	.
4r	.	16B-/LL	.	16G/LL	p	4en/	.
.	.	16B-/	.	16G/	.	.	.
.	.	16G/	.	16B-/	.	.	.
.	.	16G/JJ	.	16B-/JJ	.	.	.
=269	=269	=269	=269	=269	=269	=269	=269
4E-\	.	16c/LL	.	16A-/LL	.	8f'/L	.
.	.	16c/	.	16A-/	.	.	.
.	.	16A-/	.	16c/	.	8g'/	.
.	.	16A-/JJ	.	16c/JJ	.	.	.
4r	.	16c/LL	.	16A-/LL	.	8a-'/	.
.	.	16c/	.	16A-/	.	.	.
.	.	16A-/	.	16c/	.	8b-'/J	.
.	.	16A-/JJ	.	16c/JJ	.	.	.
=270	=270	=270	=270	=270	=270	=270	=270
2r	.	16F/LL	.	16A-/LL	.	4cc\	.
.	.	16F/	.	16A-/	.	.	.
.	.	16A-/	.	16c/	.	.	.
.	.	16A-/JJ	.	16c/JJ	.	.	.
.	.	16F/LL	.	16A-/LL	.	4r	.
.	.	16F/	.	16A-/	.	.	.
.	.	16A-/	.	16c/	.	.	.
.	.	16A-/JJ	.	16c/JJ	.	.	.
=271	=271	=271	=271	=271	=271	=271	=271
[2E-\	.	16F/LL	.	16A-/LL	.	[2d/ [2b-/	.
.	.	16F/	.	16A-/	.	.	.
.	.	16A-/	.	16B-/	.	.	.
.	.	16A-/JJ	.	16B-/JJ	.	.	.
.	.	16F/LL	.	16A-/LL	.	.	.
.	.	16F/	.	16A-/	.	.	.
.	.	16A-/	.	16B-/	.	.	.
.	.	16A-/JJ	.	16B-/JJ	.	.	.
=272	=272	=272	=272	=272	=272	=272	=272
4E-\]	.	16F/LL	.	16A-/LL	.	4d/] 4b-/]	.
.	.	16F/	.	16A-/	.	.	.
.	.	16A-/	.	16B-/	.	.	.
.	.	16A-/JJ	.	16B-/JJ	.	.	.
4r	.	16F/LL	.	16A-/LL	.	8cc'\L	.
.	.	16F/	.	16A-/	p	.	.
.	.	16A-/	.	16B-/	.	8dd'\J	.
.	.	16A-/JJ	.	16B-/JJ	.	.	.
=273	=273	=273	=273	=273	=273	=273	=273
4E-\	.	16E-/LL	.	16G/LL	.	8ee-'\L	.
.	.	16E-/	.	16G/	.	.	.
.	.	16F/	.	16A-/	.	8ff'\	.
.	.	16F/JJ	.	16A-/JJ	.	.	.
4r	.	16E-/LL	.	16G/LL	.	8gg'\	.
.	.	16E-/	.	16G/	.	.	.
.	.	16F/	.	16A-/	.	8aa-'\J	.
.	.	16F/JJ	.	16A-/JJ	.	.	.
=274	=274	=274	=274	=274	=274	=274	=274
2r	.	16G/LL	.	16B-/LL	.	4bb-\	.
.	.	16G/	.	16B-/	.	.	.
.	.	16G-/	.	16An/	.	.	.
.	.	16G-/JJ	.	16A/JJ	.	.	.
.	.	16Gn/LL	.	16B-/LL	.	4r	.
.	.	16G/	.	16B-/	.	.	.
.	.	16E-/	.	16G/	.	.	.
.	.	16E-/JJ	.	16G/JJ	.	.	.
=275	=275	=275	=275	=275	=275	=275	=275
4BB-/	.	16F/LL	.	16d/LL	.	12aa-\L	.
.	.	16F/	.	16d/	.	.	.
.	.	.	.	.	.	12gg\	.
.	.	16B-/	.	16B-/	.	.	.
.	.	.	.	.	.	12ff\J	.
.	.	16B-/JJ	.	16B-/JJ	.	.	.
4r	.	16A-/LL	.	16d/LL	.	12ff\L	.
.	.	16A-/	.	16d/	.	.	.
.	.	.	.	.	.	12ee-\	.
.	.	16B-/	.	16B-/	.	.	.
.	.	.	.	.	.	12dd\J	.
.	.	16B-/JJ	.	16B-/JJ	.	.	.
=276	=276	=276	=276	=276	=276	=276	=276
2r	.	16G/LL	.	16e-/LL	.	4ee-\	.
.	.	16G/	.	16e-/	.	.	.
.	.	16B-/	.	16B-/	.	.	.
.	.	16B-/JJ	.	16B-/JJ	.	.	.
.	.	16G/LL	.	16e-/LL	.	8b-\	.
.	.	16G/	.	16e-/	.	.	.
.	.	16B-/	.	16B-/	.	8r	.
.	.	16B-/JJ	.	16B-/JJ	.	.	.
=277	=277	=277	=277	=277	=277	=277	=277
4BB-/	.	16F/LL	.	16d/LL	.	12aa-\L	.
.	.	16F/	.	16d/	.	.	.
.	.	.	.	.	.	12gg\	.
.	.	16B-/	.	16B-/	.	.	.
.	.	.	.	.	.	12ff\J	.
.	.	16B-/JJ	.	16B-/JJ	.	.	.
4r	.	16A-/LL	.	16d/LL	.	12ff\L	.
.	.	16A-/	.	16d/	.	.	.
.	.	.	.	.	.	12ee-\	.
.	.	16B-/	.	16B-/	.	.	.
.	.	.	.	.	.	12dd\J	.
.	.	16B-/JJ	.	16B-/JJ	.	.	.
=278	=278	=278	=278	=278	=278	=278	=278
4EE-/	.	16G/LL	.	16e-/LL	.	4ee-\	.
.	.	16G/	.	16e-/	.	.	.
.	.	16B-/	.	16B-/	.	.	.
.	.	16B-/JJ	.	16B-/JJ	.	.	.
4r	.	16G/LL	.	16e-/LL	.	8bb-\	.
.	.	16G/	.	16e-/	.	.	.
.	.	16B-/	.	16B-/	.	8r	.
.	.	16B-/JJ	.	16B-/JJ	.	.	.
=279	=279	=279	=279	=279	=279	=279	=279
4E-\	.	16A-/LL	.	16c/LL	.	12ccc\L	.
.	.	16A-/	.	16c/	.	.	.
.	.	.	.	.	.	12ddd\	.
.	.	16c/	.	16e-/	.	.	.
.	.	.	.	.	.	12eee-\J	.
.	.	16c/JJ	.	16e-/JJ	.	.	.
4E-\	.	16A-/LL	.	16c/LL	.	12eee-\L	.
.	.	16A-/	.	16c/	.	.	.
.	.	.	.	.	.	12ddd\	.
.	.	16c/	.	16e-/	.	.	.
.	.	.	.	.	.	12ccc\J	.
.	.	16c/JJ	.	16e-/JJ	.	.	.
=280	=280	=280	=280	=280	=280	=280	=280
4E-\	.	16G/LL	.	16B-/LL	.	4bb-\	.
.	.	16G/	.	16B-/	.	.	.
.	.	16B-/	.	16e-/	.	.	.
.	.	16B-/JJ	.	16e-/JJ	.	.	.
4E-\	.	16G/LL	.	16B-/LL	.	8ee-\	.
.	.	16G/	.	16B-/	.	.	.
.	.	16B-/	.	16e-/	.	8r	.
.	.	16B-/JJ	.	16e-/JJ	.	.	.
=281	=281	=281	=281	=281	=281	=281	=281
8E-\L	.	16A-/LL	.	16c/LL	.	12ccc\L	.
.	.	16A-/	.	16c/	.	.	.
.	.	.	.	.	.	12ddd\	.
8E-\	.	16c/	.	16e-/	.	.	.
.	.	.	.	.	.	12eee-\J	.
.	.	16c/JJ	.	16e-/JJ	.	.	.
8E-\	.	16A-/LL	.	16c/LL	.	12eee-\L	.
.	.	16A-/	.	16c/	.	.	.
.	.	.	.	.	.	12ddd\	.
8E-\J	.	16c/	.	16e-/	.	.	.
.	.	.	.	.	.	12ccc\J	.
.	.	16c/JJ	.	16e-/JJ	.	.	.
=282	=282	=282	=282	=282	=282	=282	=282
8E-\L	.	16G/LL	.	16B-/LL	.	4bb-\	.
.	.	16G/	.	16B-/	.	.	.
8E-\	.	16B-/	.	16e-/	.	.	.
.	.	16B-/JJ	.	16e-/JJ	.	.	.
8E-\	.	16G/LL	.	16B-/LL	.	8ee-\	.
.	.	16G/	.	16B-/	.	.	.
8E-\J	.	16B-/	.	16e-/	.	8r	.
.	.	16B-/JJ	.	16e-/JJ	.	.	.
=283	=283	=283	=283	=283	=283	=283	=283
4AA-/	.	4c\ 4f\	.	4c/ 4f/	.	12ff\L	.
.	.	.	.	.	.	12ccc\	f
.	.	.	.	.	.	12bb-\J	.
4r	f	4r	f	4r	f	12aa-\L	.
.	.	.	.	.	.	12gg\	.
.	.	.	.	.	.	12ff\J	.
=284	=284	=284	=284	=284	=284	=284	=284
4BB-/	.	4B-\ 4f\	.	4B-/ 4a-/	.	12ee-\L	.
.	.	.	.	.	.	12dd\	.
.	.	.	.	.	.	12cc\J	.
4r	.	4r	.	4r	.	12b-\L	.
.	.	.	.	.	.	12cc\	.
.	.	.	.	.	.	12dd\J	.
=285	=285	=285	=285	=285	=285	=285	=285
4E-\	.	4G/ 4e-/	.	12g/L	.	4ee-\	.
.	.	.	.	12g/ 12b-/	.	.	.
.	.	.	.	12g/J 12b-/	.	.	.
4r	.	4r	.	12g/L 12b-/	.	4r	.
.	.	.	.	12g/ 12b-/	.	.	.
.	.	.	.	12g/J 12b-/	.	.	.
=286	=286	=286	=286	=286	=286	=286	=286
2r	.	4r	.	4g/ 4b-/	.	2r	.
.	.	(e-q/	.	.	.	.	.
.	.	(12d\L)	.	4g/ 4b-/	.	.	.
.	.	12c\	.	.	.	.	.
.	.	12d\J)	.	.	.	.	.
=287	=287	=287	=287	=287	=287	=287	=287
2r	.	4f'\	.	4a-/ 4b-/	.	2r	.
.	.	4d'\	.	4a-/ 4b-/	.	.	.
=288	=288	=288	=288	=288	=288	=288	=288
4r	.	4B-'/	.	4a-/ 4b-/	.	4r	.
(cq/	.	.	.	.	.	.	.
(12B-\L)	p	4r	.	4a-/ 4b-/	.	12dd\L	p
.	.	.	.	.	.	ee-q/	.
12An\	.	.	.	.	.	12cc\	.
12B-\J)	.	.	.	.	.	12dd\J	.
=289	=289	=289	=289	=289	=289	=289	=289
4E-'\	.	2r	.	4g/ 4b-/	.	[4ee-\	.
4EE-'/	.	.	.	4g/ 4b-/	.	12ee-\L]	.
.	.	.	.	.	.	12ff\	.
.	.	.	.	.	.	12gg\J	.
=290	=290	=290	=290	=290	=290	=290	=290
2r	.	4r	.	4g/ 4b-/	.	4b-\	.
.	.	(fq/	.	.	.	.	.
.	.	(12en\L)	.	4g/ 4b-/	.	4r	.
.	.	12d\	.	.	.	.	.
.	.	12e\J)	.	.	.	.	.
=291	=291	=291	=291	=291	=291	=291	=291
2r	.	4f'\	.	4a-/ 4b-/	.	2r	.
.	.	4d'\	.	4a-/ 4b-/	.	.	.
=292	=292	=292	=292	=292	=292	=292	=292
8r	.	4B-/	.	4a-/ 4b-/	.	4r	.
16r	.	.	.	.	.	.	.
16c\	.	.	.	.	.	.	.
12B-\L	.	4r	.	4a-/ 4b-/	.	12dd\L	.
.	.	.	.	.	.	ee-q/	.
12An\	.	.	.	.	.	12cc\	.
12B-\J	.	.	.	.	.	12dd\J	.
=293	=293	=293	=293	=293	=293	=293	=293
4E-'\	.	2r	.	4g/ 4b-/	.	[4ee-\	.
4EE-'/	.	.	.	4g/ 4b-/	.	12ee-\L]	.
.	.	.	.	.	.	12ff\	.
.	.	.	.	.	.	12gg\J	.
=294	=294	=294	=294	=294	=294	=294	=294
4r	.	4r	.	4g/ 4b-/	.	4b-\	.
(4G\	.	(4f\	.	(4bn\	.	12dd\L	.
.	.	.	.	.	.	12ee-\	.
.	.	.	.	.	.	12dd\J	.
=295	=295	=295	=295	=295	=295	=295	=295
8c\)	.	8e-\)	.	8cc\)	.	8cc\	.
8r	.	8r	.	8r	.	8r	.
(4G\	.	(4f\	.	(4bn\	.	12dd\L	.
.	.	.	.	.	.	12ee-\	.
.	.	.	.	.	.	12dd\J	.
=296	=296	=296	=296	=296	=296	=296	=296
8c\)	.	8e-\)	.	8cc\)	.	8cc\	.
8r	.	8r	.	8r	.	8r	.
(4G\	.	(12f\L	.	(4bn\	.	12dd\L	.
.	.	12g\	.	.	.	12ee-\	.
.	.	12f\J)	.	.	.	12dd\J	.
=297	=297	=297	=297	=297	=297	=297	=297
[2A-\)	p	(2e-\	p	[2cc\)	p	4cc\	p
.	.	.	.	.	.	[4ccc\	.
=298	=298	=298	=298	=298	=298	=298	=298
2A-\_	.	2en\	.	2cc\_	.	4ccc\]	.
.	.	.	.	.	.	[4bb-\	.
=299	=299	=299	=299	=299	=299	=299	=299
2A-\]	.	2f\)	.	2cc\]	.	4bb-\]	.
.	.	.	.	.	.	8aa-\	.
.	.	.	.	.	.	8r	.
=300	=300	=300	=300	=300	=300	=300	=300
2r	.	2r	.	2r	.	8bb-\L	p
.	.	.	.	.	.	8aa-\	.
.	.	.	.	.	.	8gg\	.
.	.	.	.	.	.	8ff\J	.
=301	=301	=301	=301	=301	=301	=301	=301
[2BB-/	p	(4.G/	p	(4.B-/	.	[2ee-\	.
.	.	8F#/	.	8An/	.	.	.
=302	=302	=302	=302	=302	=302	=302	=302
2BB-/]	p	4G/	.	4B-/	.	4ee-\]	.
.	.	4A-/)	.	4d/)	.	8gg\L	.
.	.	.	.	.	.	8ff\J	.
=303	=303	=303	=303	=303	=303	=303	=303
(2BBn/	.	(2G/	.	(2d/	.	[2gg\	.
=304	=304	=304	=304	=304	=304	=304	=304
4C/)	.	4g\)	.	4e-/)	.	4gg\]	.
4FF/	.	(8d\L	.	4a-/	.	8ff\L	.
.	.	8f\J)	.	.	.	8dd\J	.
=305	=305	=305	=305	=305	=305	=305	=305
[2GG/	.	(2e-\	.	(2g/	.	2cc\	.
=306	=306	=306	=306	=306	=306	=306	=306
2GG/]	.	2f\)	.	2bn\)	.	4ee-\	.
.	.	.	.	.	.	4dd\	.
=307	=307	=307	=307	=307	=307	=307	=307
4C/	.	12e-\L	.	12cc/L	.	4cc\	.
.	.	12e-\	.	12g/	.	.	.
.	.	12e-\J	.	12g/J	.	.	.
4r	.	12e-\L	.	12g/L	.	4r	.
.	.	12e-\	.	12g/	.	.	.
.	.	12e-\J	.	12g/J	.	.	.
=308	=308	=308	=308	=308	=308	=308	=308
4r	.	12e-\L	.	12g/L	.	2r	.
.	.	12e-\	.	12g/	.	.	.
.	.	12e-\J	.	12g/J	.	.	.
(dq/	.	.	.	.	.	.	.
(12c\L)	.	12e-\L	.	12g/L	.	.	.
12Bn\	.	12e-\	.	12g/	.	.	.
12c\J)	.	12e-\J	.	12g/J	.	.	.
=309	=309	=309	=309	=309	=309	=309	=309
4d'\	.	4f\	.	4g/	.	2r	.
4Bn'\	.	4f\	.	4g/	.	.	.
=310	=310	=310	=310	=310	=310	=310	=310
4G'\	.	4f\	.	4g/	.	4r	.
.	.	.	.	.	.	ccq/	.
4r	.	4f\	.	4g/	.	12bn/L	.
.	.	.	.	.	.	12an/	.
.	.	.	.	.	.	12b/J	.
=311	=311	=311	=311	=311	=311	=311	=311
4C/	.	4e-\	.	4g/	.	[4cc\	.
4r	.	4e-\	.	4g/	.	12cc\L]	.
.	.	.	.	.	.	12dd\	.
.	.	.	.	.	.	12ee-\J	.
=312	=312	=312	=312	=312	=312	=312	=312
4r	.	4e-\	.	4g/	.	4g/	.
(dq/	.	.	.	.	.	.	.
(12c\L)	.	4e-\	.	4g/	.	4r	.
12Bn\	.	.	.	.	.	.	.
12c\J)	.	.	.	.	.	.	.
=313	=313	=313	=313	=313	=313	=313	=313
4d'\	.	4f\	.	4g/	.	2r	.
4Bn'\	.	4f\	.	4g/	.	.	.
=314	=314	=314	=314	=314	=314	=314	=314
4G'\	.	4f\	.	4g/	.	4r	.
.	.	.	.	.	.	ccq/	.
4r	.	4f\	.	4g/	.	12bn/L	.
.	.	.	.	.	.	12an/	.
.	.	.	.	.	.	12b/J	.
=315	=315	=315	=315	=315	=315	=315	=315
4C/	.	4e-\	.	4g/	.	[4cc\	.
4r	.	4e-\	.	4g/	.	12cc\L]	.
.	.	.	.	.	.	12dd\	.
.	.	.	.	.	.	12ee-\J	.
=316	=316	=316	=316	=316	=316	=316	=316
4r	.	4e-\	.	4g/	.	4g/	.
(A-q/	.	(a-q/	.	(aa-q/	.	aa-q/	.
(12G\L)	f	12g\L)	f	12gg\L)	f	12gg\L	f
12F#\	.	12f#\	.	12ff#\	.	12ff#\	.
12G\J)	.	12g\J	.	12gg\J	.	12gg\J	.
=317	=317	=317	=317	=317	=317	=317	=317
4e-'\	.	4e-'\	.	4ee-'\	.	4ee-'\	.
4c'\	.	4c'\	.	4cc'\	.	4cc'\	.
=318	=318	=318	=318	=318	=318	=318	=318
4G'\	.	4G'/	.	4g'/	.	4g'/	.
(8E-\L	.	(8E-/L	.	(8e-/L	.	8e-/L	.
8C\J)	.	8C/J)	.	8c/J)	.	8c/J	.
=319	=319	=319	=319	=319	=319	=319	=319
2AA-^/	.	12A-/L	.	2A-^/	.	2A-^/	.
.	.	12A-/	.	.	.	.	.
.	.	12A-/J	.	.	.	.	.
.	.	12A-/L	.	.	.	.	.
.	.	12A-/	.	.	.	.	.
.	.	12A-/J	.	.	.	.	.
=320	=320	=320	=320	=320	=320	=320	=320
2r	.	12A-/L	pp	4r	.	4r	.
.	.	12A-/	.	.	.	.	.
.	.	12A-/J	.	.	.	.	.
.	.	.	.	.	.	ddq/	.
.	.	12A-/L	.	(12a-/L	.	12cc\L	.
.	.	12A-/	.	12g/	pp	12bn\	.
.	.	12A-/J	.	12a-/J)	.	12cc\J	.
=321	=321	=321	=321	=321	=321	=321	=321
2r	.	4A-/	.	8f/	.	8dd\	.
.	.	.	.	8r	.	8r	.
.	.	4A-/	.	8dd\	.	8ff\	.
.	.	.	.	8r	.	8r	.
=322	=322	=322	=322	=322	=322	=322	=322
2r	.	4A-/	.	2r	.	2r	.
.	.	4A-/	.	.	.	.	.
=323	=323	=323	=323	=323	=323	=323	=323
2AA-^/	.	4A-/	.	2A-^/	.	2A-^/	.
.	.	4A-/	.	.	.	.	.
=324	=324	=324	=324	=324	=324	=324	=324
2r	.	4A-/	pp	4r	.	4r	.
.	.	.	.	.	.	ddq/	.
.	.	4A-/	.	(12a-/L	pp	12cc\L	pp
.	.	.	.	12g/	.	12bn\	.
.	.	.	.	12a-/J)	.	12cc\J	.
=325	=325	=325	=325	=325	=325	=325	=325
2r	.	4A-/	.	8f/	.	8dd\	.
.	.	.	.	8r	.	8r	.
.	.	4A-/	.	8dd\	.	8ff\	.
.	.	.	.	8r	.	8r	.
=326	=326	=326	=326	=326	=326	=326	=326
2r	.	4B-/	.	2r	.	2r	.
.	.	4A-/	.	.	.	.	.
=327	=327	=327	=327	=327	=327	=327	=327
2GG/	f	2G/	f	2e-/ 2b-/	f	2ee-\ 2bb-\	f
=328	=328	=328	=328	=328	=328	=328	=328
2AA-/	.	2A-/	.	2A-/ 2e-/ 2cc/	.	2a-\ 2ee-\ 2ccc\	.
=329	=329	=329	=329	=329	=329	=329	=329
2r	.	2r	.	2r	.	4r	.
.	.	.	.	.	.	8ccc\L	.
.	.	.	.	.	.	8bb-\J	p
=330	=330	=330	=330	=330	=330	=330	=330
2r	.	2r	.	2r	.	8bb-\L	.
.	.	.	.	.	.	8aa-\J	.
.	.	.	.	.	.	8gg\L	.
.	.	.	.	.	.	8ff\J	.
=331	=331	=331	=331	=331	=331	=331	=331
[2GG/	.	2G/	.	2B-/	.	2ee-\	.
=332	=332	=332	=332	=332	=332	=332	=332
(2GG/]	p	(2A-/	p	(2d/	p	4gg\	p
.	.	.	.	.	.	4ff\	.
=333	=333	=333	=333	=333	=333	=333	=333
4E-\)	.	4G/)	.	4e-/)	.	4ee-\	.
4r	.	(4G/	.	(4B-/	.	4r	.
=334	=334	=334	=334	=334	=334	=334	=334
2r	.	4F#/	.	4An/	.	4r	.
.	.	.	.	.	.	ccq/	.
.	.	4Fn/	.	4A-/	p	12b-/L	.
.	.	.	.	.	.	12an/	.
.	.	.	.	.	.	12b-/J	.
=335	=335	=335	=335	=335	=335	=335	=335
4E-\	.	4E-/)	.	4G/)	.	2g/	.
4r	.	8E-'/L	.	8G'/L	.	.	.
.	.	8E-'/J	.	8G'/J	.	.	.
=336	=336	=336	=336	=336	=336	=336	=336
2r	.	8G'/L	.	8B-'/L	.	2b-\	.
.	.	8G'/J	.	8B-'/J	.	.	.
.	.	8E-'/L	.	8G'/L	.	.	.
.	.	8E-'/J	.	8G'/J	.	.	.
=337	=337	=337	=337	=337	=337	=337	=337
4E-\	.	4r	.	4r	.	4ff\	.
4r	.	8E-'/L	.	8G'/L	.	8ee-\	.
.	.	8E-'/J	.	8G'/J	.	8r	.
=338	=338	=338	=338	=338	=338	=338	=338
2r	.	8G'/L	.	8B-'/L	.	4r	.
.	.	8G'/J	.	8B-'/J	.	.	.
.	.	.	.	.	.	b-q/	.
.	.	8E-'/L	.	8G'/L	.	12a-/L	.
.	.	.	.	.	.	12g/	.
.	.	8E-'/J	.	8G'/J	.	.	.
.	.	.	.	.	.	12a-/J	.
=339	=339	=339	=339	=339	=339	=339	=339
4AA-/	.	4r	.	4r	.	2f/	.
4r	.	8c'\L	.	8A-'/L	.	.	.
.	.	8c'\J	.	8A-'/J	.	.	.
=340	=340	=340	=340	=340	=340	=340	=340
2r	.	8A-'/L	.	8c'/L	.	2a-/	.
.	.	8A-'/J	.	8c'/J	.	.	.
.	.	8F'/L	.	8A-'/L	.	.	.
.	.	8F'/J	.	8A-'/J	.	.	.
=341	=341	=341	=341	=341	=341	=341	=341
4AA-/	.	4r	.	4r	.	4dd\	.
4r	.	8F'/L	.	8A-'/L	.	8cc\	.
.	.	8F'/J	.	8A-'/J	.	8r	.
=342	=342	=342	=342	=342	=342	=342	=342
2r	.	8A-'/L	.	8c'/L	.	4r	.
.	.	8c'/J	.	8c'/J	.	.	.
.	.	.	.	.	.	a-q/	.
.	.	8A-'/L	.	8f'/L	.	12g/L	.
.	.	.	.	.	.	12f/	.
.	.	8A-'/J	.	8f'/J	.	.	.
.	.	.	.	.	.	12g/J	.
=343	=343	=343	=343	=343	=343	=343	=343
4BB-/	.	4r	.	4r	.	2d/	.
4r	.	8F'/L	.	8B-'/L	.	.	.
.	.	8F'/J	.	8B-'/J	.	.	.
=344	=344	=344	=344	=344	=344	=344	=344
2r	.	8B-'/L	.	8d'/L	.	2f/	.
.	.	8B-'/J	.	8d'/J	.	.	.
.	.	8d'\L	.	8B-'/L	.	.	.
.	.	8d'\J	.	8B-'/J	.	.	.
=345	=345	=345	=345	=345	=345	=345	=345
4BB-/	.	4r	.	4r	.	4cc\	.
4r	.	8B-'/L	.	8d'/L	.	8b-\	.
.	.	8B-'/J	.	8d'/J	.	8r	.
=346	=346	=346	=346	=346	=346	=346	=346
2r	.	8d'\L	.	8f'/L	.	4r	.
.	.	8d'\J	.	8f'/J	.	.	.
.	.	.	.	.	.	b-q/	.
.	.	8B-'/L	.	8d'/L	.	12a-/L	.
.	.	.	.	.	.	12g/	.
.	.	8B-'/J	.	8d'/J	.	.	.
.	.	.	.	.	.	12a-/J	.
=347	=347	=347	=347	=347	=347	=347	=347
4E-\	.	4r	.	4r	.	2g/	.
4r	.	8B-'/L	.	8e-'/L	.	.	.
.	.	8B-'/J	.	8e-'/J	.	.	.
=348	=348	=348	=348	=348	=348	=348	=348
4BB-/	.	4r	.	4r	.	2b-\	.
4r	.	8d'\L	.	8f'/L	.	.	.
.	.	8d'\J	.	8f'/J	.	.	.
=349	=349	=349	=349	=349	=349	=349	=349
4EE-/	.	8e-'/L	.	8e-'/L	.	4ee-\	.
.	.	8G'/J	.	8e-'/J	.	.	.
4r	.	8B-'/L	.	8f'/L	.	4ff\	.
.	.	8B-'/J	.	8f'/J	.	.	.
=350	=350	=350	=350	=350	=350	=350	=350
2r	.	4e-\	.	4g/	.	4gg\	.
.	.	.	.	.	.	ccq/	.
.	.	4r	.	4r	.	12b-/L	.
.	.	.	.	.	.	12an/	.
.	.	.	.	.	.	12b-/J	.
=351	=351	=351	=351	=351	=351	=351	=351
4E-\	.	4r	.	4r	.	2g/	.
4r	.	8E-'/L	.	8G'/L	.	.	.
.	.	8E-'/J	.	8G'/J	.	.	.
=352	=352	=352	=352	=352	=352	=352	=352
2r	.	8G'/L	.	8B-'/L	.	2b-\	.
.	.	8G'/J	.	8B-'/J	.	.	.
.	.	8E-'/L	.	8G'/L	.	.	.
.	.	8E-'/J	.	8G'/J	.	.	.
=353	=353	=353	=353	=353	=353	=353	=353
4E-\	.	4r	.	4r	.	4ff\	.
4r	.	8E-'/L	.	8G'/L	.	4ee-\	.
.	.	8E-'/J	.	8G'/J	.	.	.
=354	=354	=354	=354	=354	=354	=354	=354
2r	.	8G'/L	.	8B-'/L	.	4r	.
.	.	8G'/J	.	8B-'/J	.	.	.
.	.	.	.	.	.	a-q/	.
.	.	8E-'/L	.	8G'/L	.	12g/L	.
.	.	.	.	.	.	12f/	.
.	.	8E-'/J	.	8G'/J	.	.	.
.	.	.	.	.	.	12g/J	.
=355	=355	=355	=355	=355	=355	=355	=355
4AA-/	.	4r	.	4r	.	2f/	.
4r	.	8c'\L	.	8A-'/L	.	.	.
.	.	8c'\J	.	8A-'/J	.	.	.
=356	=356	=356	=356	=356	=356	=356	=356
2r	.	8A-'/L	.	8c'/L	.	2a-/	.
.	.	8A-'/J	.	8c'/J	.	.	.
.	.	8F'/L	.	8A-'/L	.	.	.
.	.	8F'/J	.	8A-'/J	.	.	.
=357	=357	=357	=357	=357	=357	=357	=357
4AA-/	.	4r	.	4r	.	4dd\	.
4r	.	8F'/L	.	8A-'/L	.	4cc\	.
.	.	8F'/J	.	8A-'/J	.	.	.
=358	=358	=358	=358	=358	=358	=358	=358
2r	.	8A-'/L	.	8c'/L	.	4r	.
.	.	8c'/J	.	8c'/J	.	.	.
.	.	.	.	.	.	gq/	.
.	.	8A-'/L	.	8f'/L	.	12f/L	.
.	.	.	.	.	.	12en/	.
.	.	8A-'/J	.	8f'/J	.	.	.
.	.	.	.	.	.	12f/J	.
=359	=359	=359	=359	=359	=359	=359	=359
4BB-/	.	4r	.	4r	.	2d/	.
4r	.	8F/L	.	8B-/L	.	.	.
.	.	8F/J	.	8B-/J	.	.	.
=360	=360	=360	=360	=360	=360	=360	=360
2r	.	8B-\L	.	8d/L	.	2f/	.
.	.	8B-\	.	8d/	.	.	.
.	.	8d\	.	8B-/	.	.	.
.	.	8d\J	.	8B-/J	.	.	.
=361	=361	=361	=361	=361	=361	=361	=361
4BB-/	.	4r	.	4r	.	4cc\	.
4r	.	8B-/L	.	8d/L	.	8b-\	.
.	.	8B-/J	.	8d/J	.	8r	.
=362	=362	=362	=362	=362	=362	=362	=362
2r	.	8d\L	.	8f/L	.	4r	.
.	.	8d\	.	8f/	.	.	.
.	.	.	.	.	.	ccq/	.
.	.	8B-\	.	8d/	.	12b-/L	.
.	.	.	.	.	.	12a-/	.
.	.	8B-\J	.	8d/J	.	.	.
.	.	.	.	.	.	12b-/J	.
=363	=363	=363	=363	=363	=363	=363	=363
4E-\	.	4r	.	4r	.	2g/	.
4r	.	8B-/L	.	8e-/L	.	.	.
.	.	8B-/J	.	8e-/J	.	.	.
=364	=364	=364	=364	=364	=364	=364	=364
4BB-/	.	4r	.	4r	.	2b-\	.
4r	.	8d\L	.	8f/L	.	.	.
.	.	8d\J	.	8f/J	.	.	.
=365	=365	=365	=365	=365	=365	=365	=365
4EE-/	.	8e-/L	.	8e-/L	.	8ee-\	.
.	.	8G/	.	8e-/	.	8r	.
4r	.	8B-/	.	8f/	.	8ff\	.
.	.	8B-/J	.	8f/J	.	8r	.
=366	=366	=366	=366	=366	=366	=366	=366
2r	.	4e-\	.	4g/	.	4gg\	.
.	.	.	.	.	.	ffq/	.
.	.	4r	.	4r	.	12ee-\L	.
.	.	.	.	.	.	12dd\	.
.	.	.	.	.	.	12ee-\J	.
=367	=367	=367	=367	=367	=367	=367	=367
(2A-\	p	[2B-/	p	(4.f/	p	4.dd\	p
.	.	.	.	8d/)	.	8ff\	.
=368	=368	=368	=368	=368	=368	=368	=368
4G\)	.	4B-/]	.	4e-/	.	4ee-\	.
.	.	.	.	.	.	ffq/	.
4r	.	4r	.	4r	.	12ee-\L	.
.	.	.	.	.	.	12dd\	.
.	.	.	.	.	.	12ee-\J	.
=369	=369	=369	=369	=369	=369	=369	=369
(2A-\	.	[2B-/	.	(4.f/	.	4.dd\	.
.	.	.	.	8d/)	.	8ff\	.
=370	=370	=370	=370	=370	=370	=370	=370
4G\)	.	4B-/]	.	4e-/	.	4ee-\	.
.	.	.	.	.	.	ffq/	.
4r	.	4r	.	4r	.	12ee-\L	.
.	.	.	.	.	.	12dd\	.
.	.	.	.	.	.	12ee-\J	.
=371	=371	=371	=371	=371	=371	=371	=371
4C/	.	4E-/	.	4A-/	.	4aa-\	f
.	.	.	.	.	.	ffq/	.
4r	f	4r	f	4r	.	12ee-\L	.
.	.	.	.	.	.	12dd\	.
.	.	.	.	.	.	12ee-\J	.
=372	=372	=372	=372	=372	=372	=372	=372
4E-'\	.	4E-'/	.	4B-'/	.	4gg\	.
.	.	.	.	.	.	ffq/	.
4r	.	4r	.	4r	.	12ee-\L	.
.	.	.	.	.	.	12dd\	.
.	.	.	.	.	.	12ee-\J	.
=373	=373	=373	=373	=373	=373	=373	=373
4BB-'/	.	4F'/	.	4d'/	.	4ff\	.
4BB-'/	.	4F'/	.	4d'/	.	8.ff\L	.
.	.	.	.	.	.	16gg\Jk	.
=374	=374	=374	=374	=374	=374	=374	=374
4GG'/	.	4E-'/	.	4e-'/	.	4ee-\	.
.	.	.	.	.	.	ffq/	.
4r	.	4r	.	4r	.	12ee-\L	.
.	.	.	.	.	.	12dd\	.
.	.	.	.	.	.	12ee-\J	.
=375	=375	=375	=375	=375	=375	=375	=375
4C'/	.	4E-'/	.	4A-'/	.	4aa-\	.
.	.	.	.	.	.	ffq/	.
4r	.	4r	.	4r	.	12ee-\L	.
.	.	.	.	.	.	12dd\	.
.	.	.	.	.	.	12ee-\J	.
=376	=376	=376	=376	=376	=376	=376	=376
4E-'\	.	4E-'/	.	4B-'/	.	4gg\	.
.	.	.	.	.	.	ffq/	.
4r	.	4r	.	4r	.	12ee-\L	.
.	.	.	.	.	.	12dd\	.
.	.	.	.	.	.	12ee-\J	.
=377	=377	=377	=377	=377	=377	=377	=377
4BB-'/	.	4F'/	.	4d'/	.	4ff'\	.
4BB-'/	.	4F'/	.	4d'/	.	8.ff\L	.
.	.	.	.	.	.	16gg\Jk	.
=378	=378	=378	=378	=378	=378	=378	=378
4GG'/	.	4E-'/	.	4e-'/	.	4ee-\	.
.	.	.	.	.	.	fq/	.
4r	.	4r	.	4r	.	12e-/L	.
.	.	.	.	.	.	12d/	.
.	.	.	.	.	.	12e-/J	.
=379	=379	=379	=379	=379	=379	=379	=379
(2AA-/	pp	[2c\	pp	(2e-/	pp	[2cc\	pp
=380	=380	=380	=380	=380	=380	=380	=380
2GG/	.	2c\_	.	2en/	.	8cc\L]	.
.	.	.	.	.	.	8bn\J	.
.	.	.	.	.	.	8dd-\L	.
.	.	.	.	.	.	8cc\J	.
=381	=381	=381	=381	=381	=381	=381	=381
2FF/)	.	2c\]	.	2f/)	.	4b-\	.
.	.	.	.	.	.	4a-/	.
=382	=382	=382	=382	=382	=382	=382	=382
4r	.	4r	.	4r	.	4r	.
(4AA-/	.	[4B-/	.	(4d/	.	4f/	.
=383	=383	=383	=383	=383	=383	=383	=383
2GG/	.	2B-/_	.	2e-/	.	[2b-\	.
=384	=384	=384	=384	=384	=384	=384	=384
2DD/	.	2B-/_	.	2f/	.	8b-/L]	.
.	.	.	.	.	.	8an/J	.
.	.	.	.	.	.	8cc\L	.
.	.	.	.	.	.	8b-\J	.
=385	=385	=385	=385	=385	=385	=385	=385
2EE-/)	.	2B-/]	.	2e-/)	.	4a-/	.
.	.	.	.	.	.	4g/	.
=386	=386	=386	=386	=386	=386	=386	=386
4r	.	4r	.	4r	.	4r	.
(4B-\	.	[4c\	.	(4en/	.	4g/	.
=387	=387	=387	=387	=387	=387	=387	=387
8A-\)	.	8c\]	.	8f/)	.	8f/	.
8r	.	8r	.	8r	.	8r	.
4r	.	4r	.	4r	.	12cc\L	.
.	.	.	.	.	.	12dd-\	.
.	.	.	.	.	.	12bn\J	.
=388	=388	=388	=388	=388	=388	=388	=388
4r	.	4r	.	4r	.	8cc\	.
.	.	.	.	.	.	8r	.
(4B-\	.	[4c\	.	(4en/	.	12g/L	.
.	.	.	.	.	.	12a-/	.
.	.	.	.	.	.	12g/J	.
=389	=389	=389	=389	=389	=389	=389	=389
8A-\)	.	8c\]	.	8f/)	.	8f/	.
8r	.	8r	.	8r	.	8r	.
4r	.	(12c\L	.	4r	.	12cc\L	.
.	.	12d-\	.	.	.	12dd-\	.
.	.	12Bn\J)	.	.	.	12bn\J	.
=390	=390	=390	=390	=390	=390	=390	=390
2r	.	4c\	.	4r	.	8cc\	.
.	.	.	.	.	.	8r	.
.	.	(12d-\L	.	(4en/	.	4g/	.
.	.	12c\	.	.	.	.	.
.	.	12B-\J)	.	.	.	.	.
=391	=391	=391	=391	=391	=391	=391	=391
2r	.	8A-/	.	8f/)	.	8f/	.
.	.	8r	.	8r	.	8r	.
.	.	8G/	.	8en/	.	8g/	.
.	.	8r	.	8r	.	8r	.
=392	=392	=392	=392	=392	=392	=392	=392
2r	.	8F/	.	8f/	.	8a-/	.
.	.	8r	.	8r	.	8r	.
.	.	8E-/	.	8g/	.	8b-\	.
.	.	8r	.	8r	.	8r	.
=393	=393	=393	=393	=393	=393	=393	=393
[2AA-/	.	(2D/	.	2f/	.	[2cc\	.
=394	=394	=394	=394	=394	=394	=394	=394
(2AA-/]	.	[2d\)	.	2f#/	.	2cc\_	.
=395	=395	=395	=395	=395	=395	=395	=395
[2GG/)	.	2d\_	.	[2g/	.	2cc\]	.
=396	=396	=396	=396	=396	=396	=396	=396
2GG/]	.	2d\]	.	2g/]	.	2bn\	.
=397	=397	=397	=397	=397	=397	=397	=397
[2C/	p	[2en\	p	[2g/	p	[2b-\	p
=398	=398	=398	=398	=398	=398	=398	=398
2C/]	.	(2e\]	.	2g/]	.	4b-\]	.
.	.	.	.	.	.	4cc\	.
=399	=399	=399	=399	=399	=399	=399	=399
[2FF/	.	(2f\)	.	[2f/	.	2b-\	.
=400	=400	=400	=400	=400	=400	=400	=400
2FF/]	.	2c\)	.	2f/_	.	2an/	.
=401	=401	=401	=401	=401	=401	=401	=401
(2BB-/	.	(2d\	.	2f/_	.	[2a-/	.
=402	=402	=402	=402	=402	=402	=402	=402
2DD/)	.	[2B-/)	.	2f/_	.	4a-/]	.
.	.	.	.	.	.	8cc\L	.
.	.	.	.	.	.	8b-\J	.
=403	=403	=403	=403	=403	=403	=403	=403
(2EE-/	.	2B-/]	.	(4f/]	.	4a-/	.
.	.	.	.	4e-/)	.	4g/	.
=404	=404	=404	=404	=404	=404	=404	=404
2AA-/)	.	(8En/L	.	(2c/	.	8b-/L	.
.	.	8F/J	.	.	.	8a-/J	.
.	.	8G/L	.	.	.	8g/L	.
.	.	8A-/J)	.	.	.	8f/J	.
=405	=405	=405	=405	=405	=405	=405	=405
4BB-/	.	4G/	.	4B-/)	.	4e-/	.
4r	.	4r	.	4r	.	4r	.
=406	=406	=406	=406	=406	=406	=406	=406
.	.	.	.	.	.	gq/	.
4BB-/	.	4A-/	.	4d/	.	4f/	.
4r	.	4r	.	4r	.	4r	.
=407	=407	=407	=407	=407	=407	=407	=407
4EE-'/	f	4G'/	.	12G/L 12e-/	f	12G/L 12e-/	.
.	.	.	.	12g/	.	12b-/	.
.	.	.	.	12g/J	.	12b-/J	.
4E-'\	.	4E-'/	f	12g/L	.	4b-\	.
.	.	.	.	12g/	.	.	.
.	.	.	.	12g/J	.	.	.
=408	=408	=408	=408	=408	=408	=408	=408
4r	.	4r	.	4g/	.	4b-\	.
(12G\L	.	(12g\L	.	4g/	.	4b-\	.
12F\	.	12f\	.	.	.	.	.
12E-\J)	.	12e-\J)	.	.	.	.	.
=409	=409	=409	=409	=409	=409	=409	=409
4D'\	.	4d'\	.	4a-/	.	4b-\	.
4BB-'/	.	4B-'/	.	4a-/	.	4b-\	.
=410	=410	=410	=410	=410	=410	=410	=410
2r	.	2r	.	4a-/	.	4g/	.
.	.	.	.	4a-/	.	12dd\L	.
.	.	.	.	.	.	12cc\	.
.	.	.	.	.	.	12b-\J	.
=411	=411	=411	=411	=411	=411	=411	=411
4EE-'/	.	4E-'/	.	4g/	.	12ee-\L	.
.	.	.	.	.	.	12b-\	.
.	.	.	.	.	.	12b-\J	.
4E-'\	.	4e-'\	.	4g/	.	4b-\	.
=412	=412	=412	=412	=412	=412	=412	=412
4r	.	4r	.	4g/	.	4b-\	.
(12G\L	.	(12g\L	.	4g/	.	4b-\	.
12F\	.	12f\	.	.	.	.	.
12E-\J)	.	12e-\J)	.	.	.	.	.
=413	=413	=413	=413	=413	=413	=413	=413
4D'\	.	4d'\	.	4a-/	.	4b-\	.
4BB-'/	.	4B-'/	.	4a-/	.	4b-\	.
=414	=414	=414	=414	=414	=414	=414	=414
2r	.	2r	.	4a-/	.	12b-\L	.
.	.	.	.	.	.	12b-\	.
.	.	.	.	.	.	12b-\J	.
.	.	.	.	4a-/	.	12dd\L	.
.	.	.	.	.	.	12cc\	.
.	.	.	.	.	.	12b-\J	.
=415	=415	=415	=415	=415	=415	=415	=415
4EE-/	f	4E-/	f	4g/	f	4ee-\	f
4G\	.	12g\L	.	4gg\	.	4gg\	.
.	.	12g\	.	.	.	.	.
.	.	12g\J	.	.	.	.	.
=416	=416	=416	=416	=416	=416	=416	=416
4C/	.	4c\	.	4cc\	.	4cc\	.
4E-\	.	4e-\	.	4ee-\	.	4ee-\	.
=417	=417	=417	=417	=417	=417	=417	=417
4AA-/	.	4A-/	.	4a-/	.	4a-/	.
4C/	.	4c\	.	4cc\	.	4cc\	.
=418	=418	=418	=418	=418	=418	=418	=418
4FF/	.	4F/	.	4f/	.	4f/	.
4AA-/	.	4A-/	.	4a-/	.	4a-/	.
=419	=419	=419	=419	=419	=419	=419	=419
4DD/	.	4E-/	.	4d/	.	4d/	.
4r	.	4r	.	4r	.	4r	.
=420	=420	=420	=420	=420	=420	=420	=420
2d\	ff	2f\	ff	2aa-\	ff	2cc\ 2ccc\	ff
=421	=421	=421	=421	=421	=421	=421	=421
2r	.	2r	.	2r	.	2r	.
=422	=422	=422	=422	=422	=422	=422	=422
2r	.	4r	.	4r	.	4r	.
.	.	(4d\	pp	(4a-/	.	4cc\	.
=423	=423	=423	=423	=423	=423	=423	=423
2r	.	8e-\)	.	8g/)	pp	8b-\	pp
.	.	4r	.	4r	.	8r	.
.	.	.	.	.	.	12ee-\L	.
.	.	.	.	.	.	12dd\	.
.	.	8r	.	8r	.	.	.
.	.	.	.	.	.	12ee-\J	.
=424	=424	=424	=424	=424	=424	=424	=424
2r	.	2r	.	2r	.	4gg\	.
.	.	.	.	.	.	4r	.
=425	=425	=425	=425	=425	=425	=425	=425
4E-\	.	2r	.	2r	.	2r	.
4r	.	.	.	.	.	.	.
=426	=426	=426	=426	=426	=426	=426	=426
2r	.	4r	.	4r	.	4r	.
.	.	(4d\	.	(4a-/	.	4cc\	.
=427	=427	=427	=427	=427	=427	=427	=427
2r	.	8e-\)	.	8g/)	.	8b-\	.
.	.	4r	.	4r	.	8r	.
.	.	.	.	.	.	12ee-\L	.
.	.	.	.	.	.	12dd\	.
.	.	8r	.	8r	.	.	.
.	.	.	.	.	.	12ee-\J	.
=428	=428	=428	=428	=428	=428	=428	=428
2r	.	4r	.	4r	.	8gg'\	.
.	.	.	.	.	.	8r	.
.	.	(4d\	.	(4a-/	.	4cc\	.
=429	=429	=429	=429	=429	=429	=429	=429
2r	.	8e-\)	.	8g/)	.	8b-\	.
.	.	4r	.	4r	.	8r	.
.	.	.	.	.	.	12ee-\L	.
.	.	.	.	.	.	12dd\	.
.	.	8r	.	8r	.	.	.
.	.	.	.	.	.	12ee-\J	.
=430	=430	=430	=430	=430	=430	=430	=430
2r	.	2r	.	2r	.	8gg'\	.
.	.	.	.	.	.	8r	.
.	.	.	.	.	.	8b-'\	.
.	.	.	.	.	.	8r	.
=431	=431	=431	=431	=431	=431	=431	=431
2r	.	2r	.	2r	.	8ee-'\	.
.	.	.	.	.	.	8r	.
.	.	.	.	.	.	8g'/	.
.	.	.	.	.	.	8r	.
=432	=432	=432	=432	=432	=432	=432	=432
4r	.	4r	.	4r	.	8b-'\	.
.	.	.	.	.	.	8r	.
(4AAn^/	.	(4F#^/	.	(4e-^/	.	4cc^\	.
=433	=433	=433	=433	=433	=433	=433	=433
[2BB-/)	.	2G/	.	2B-/	.	2e-/	.
=434	=434	=434	=434	=434	=434	=434	=434
.	.	.	.	.	.	gq/	.
(2BB-/]	.	2A-/	.	2d/	.	8f/L	.
.	.	.	.	.	.	8e-/	.
.	.	.	.	.	.	8f/	.
.	.	.	.	.	.	8g/J	.
=435	=435	=435	=435	=435	=435	=435	=435
4EE-/)	.	4G/)	.	4e-/)	.	4e-/	.
4r	.	4r	.	12e-/L	.	12ee-\L	.
.	.	.	.	12d/	.	12dd\	.
.	.	.	.	12e-/J	.	12ee-\J	.
=436	=436	=436	=436	=436	=436	=436	=436
2r	.	2r	.	4g/	.	8gg'\	.
.	.	.	.	.	.	8r	.
.	.	.	.	4B-/	.	8b-'\	.
.	.	.	.	.	.	8r	.
=437	=437	=437	=437	=437	=437	=437	=437
2r	.	2r	.	4e-/	.	8ee-'\	.
.	.	.	.	.	.	8r	.
.	.	.	.	4G/	.	8g'/	.
.	.	.	.	.	.	8r	.
=438	=438	=438	=438	=438	=438	=438	=438
4r	.	4r	.	4B-/	.	8b-'\	.
.	.	.	.	.	.	8r	.
(4AAn^/	.	(4F#^/	.	(4e-^/	.	4cc^\	.
=439	=439	=439	=439	=439	=439	=439	=439
[2BB-/)	.	2G/	.	2B-/	.	2e-/	.
=440	=440	=440	=440	=440	=440	=440	=440
.	.	.	.	.	.	gq/	.
2BB-/]	.	2A-/)	.	2d/)	.	8f/L	.
.	.	.	.	.	.	8e-/	.
.	.	.	.	.	.	8f/	.
.	.	.	.	.	.	8g/J	.
=441	=441	=441	=441	=441	=441	=441	=441
4EE-/	.	12G/L	pp	12e-/L	.	8e-/	.
.	.	12G/	.	12B-/	.	.	.
.	.	.	.	.	.	8r	.
.	.	12G/J	.	12B-/J	.	.	.
4r	pp	12G/L	.	4B-/	.	12gg\L	.
.	.	12G/	.	.	.	12ff\	pp
.	.	12G/J	.	.	.	12ee-\J	.
=442	=442	=442	=442	=442	=442	=442	=442
4BB-/	.	4A-/	.	4B-/	.	8dd\	.
.	.	.	.	.	.	8r	.
4r	.	4A-/	.	4B-/	.	12b-\L	.
.	.	.	.	.	.	12cc\	.
.	.	.	.	.	.	12dd\J	.
=443	=443	=443	=443	=443	=443	=443	=443
4EE-/	.	4G/	.	4B-/	.	8ee-\	.
.	.	.	.	.	.	8r	.
4r	.	4G/	.	4B-/	.	12gg\L	.
.	.	.	.	.	.	12ff\	.
.	.	.	.	.	.	12ee-\J	.
=444	=444	=444	=444	=444	=444	=444	=444
4BB-/	.	4A-/	.	4B-/	.	8dd\	.
.	.	.	.	.	.	8r	.
4r	.	4A-/	.	4B-/	.	12b-\L	.
.	.	.	.	.	.	12cc\	.
.	.	.	.	.	.	12dd\J	.
=445	=445	=445	=445	=445	=445	=445	=445
4EE-/	.	8G/	.	4B-/	.	4ee-\	.
.	.	4e-\	.	.	.	.	.
4r	.	.	.	4r	.	4r	.
.	.	[8e-\	.	.	.	.	.
=446	=446	=446	=446	=446	=446	=446	=446
2r	.	8e-\]	.	2r	.	2r	.
.	.	4e-\	.	.	.	.	.
.	.	[8e-\	.	.	.	.	.
=447	=447	=447	=447	=447	=447	=447	=447
2r	.	8e-\]	pp	(2d-/	.	2b-\	pp
.	.	4e-\	.	.	.	.	.
.	.	[8e-\	.	.	.	.	.
=448	=448	=448	=448	=448	=448	=448	=448
2r	.	8e-\]	.	4c/	.	4a-/	.
.	.	4e-\	.	.	.	.	.
.	.	.	.	4B-/)	.	4g/	.
.	.	[8e-\	.	.	.	.	.
=449	=449	=449	=449	=449	=449	=449	=449
2r	.	8e-\]	.	4A-/	.	4f/	.
.	.	4e-\	.	.	.	.	.
.	.	.	.	(8.A-/L	.	8.f/L	.
.	.	[8e-\	.	.	.	.	.
.	.	.	.	16B-/Jk)	.	16g/Jk	.
=450	=450	=450	=450	=450	=450	=450	=450
2r	.	8e-\]	.	4G/	.	4e-/	.
.	.	4e-\	.	.	.	.	.
.	.	.	.	4B-/	.	4g/	.
.	.	[8e-\	.	.	.	.	.
=451	=451	=451	=451	=451	=451	=451	=451
2r	.	8e-\]	.	(2d-/	.	2b-\	.
.	.	4e-\	.	.	.	.	.
.	.	[8e-\	.	.	.	.	.
=452	=452	=452	=452	=452	=452	=452	=452
2r	.	8e-\]	.	4c/	.	4a-/	.
.	.	4e-\	.	.	.	.	.
.	.	.	.	4B-/)	.	4g/	.
.	.	[8e-\	.	.	.	.	.
=453	=453	=453	=453	=453	=453	=453	=453
2r	.	8e-\]	.	(8A-/L	.	8f/L	.
.	.	4e-\	.	8B-/J)	.	8g/J	.
.	.	.	.	(8A-/L	.	8f/L	.
.	.	[8e-\	.	8B-/J)	.	8g/J	.
=454	=454	=454	=454	=454	=454	=454	=454
2r	.	8e-\]	.	4G/	.	4e-/	.
.	.	4e-\	.	.	.	.	.
.	.	.	.	4r	.	4r	.
.	.	[8e-\	.	.	.	.	.
=455	=455	=455	=455	=455	=455	=455	=455
[2D-\	.	8e-\]	.	[2B-/	.	[2b-\	.
.	.	4e-\	.	.	.	.	.
.	.	[8e-\	.	.	.	.	.
=456	=456	=456	=456	=456	=456	=456	=456
2D-\]	.	8e-\]	.	2B-/]	.	2b-\]	.
.	.	4e-\	.	.	.	.	.
.	.	[8e-\	.	.	.	.	.
=457	=457	=457	=457	=457	=457	=457	=457
2C/	pp	8e-\]	pp	2A-/	.	2a-/	pp
.	.	4e-\	.	.	.	.	.
.	.	[8e-\	.	.	.	.	.
=458	=458	=458	=458	=458	=458	=458	=458
2AA-/	.	8e-\]	.	2c/	.	2cc\	.
.	.	4e-\	.	.	.	.	.
.	.	8e-\	.	.	.	.	.
=459	=459	=459	=459	=459	=459	=459	=459
[2BB-/	.	[2B-/	.	[2e-/	.	[2g/	.
=460	=460	=460	=460	=460	=460	=460	=460
2BB-/_	.	2B-/]	.	2e-/]	.	2g/]	.
=461	=461	=461	=461	=461	=461	=461	=461
2BB-/_	.	[2A-/	.	[2d/	.	[2f/	.
=462	=462	=462	=462	=462	=462	=462	=462
2BB-/]	.	2A-/]	.	2d/]	.	2f/]	.
=463	=463	=463	=463	=463	=463	=463	=463
4EE-/	.	4G/	.	4e-/	.	4e-/	.
(12BB-/L	f	(12B-\L	f	(12B-/L	.	12b-\L	.
12C/	f	12c\	.	12c/	f	12cc\	.
12D/J)	.	12d\J)	.	12d/J)	.	12dd\J	.
=464	=464	=464	=464	=464	=464	=464	=464
4E-\	.	4e-\	.	4e-/	.	4ee-\	.
4B-\	.	4B-\ 4f\	.	4B-/ 4f/ 4dd/	.	4d/ 4b-/ 4ff/	.
=465	=465	=465	=465	=465	=465	=465	=465
4E-\	.	4E-/ 4B-/ 4g/	.	4B-/ 4g/ 4ee-/	.	4e-\ 4b-\ 4gg\	.
(12BB-/L	.	(12B-\L	.	(12B-/L	.	12b-\L	.
12C/	.	12c\	.	12c/	.	12cc\	.
12D/J)	.	12d\J)	.	12d/J)	.	12dd\J	.
=466	=466	=466	=466	=466	=466	=466	=466
4E-\	.	4e-\	.	4e-/	.	4ee-\	.
4B-\	.	4B-\ 4f\ 4b-\	.	4d/ 4b-/ 4ff/	.	4d\ 4b-\ 4bb-\	.
=467	=467	=467	=467	=467	=467	=467	=467
4E-\	.	4E-/ 4B-/ 4g/	.	4e-\ 4b-\ 4gg\	.	4e-\ 4b-\ 4gg\	.
4r	.	4r	.	4r	.	4r	.
=468	=468	=468	=468	=468	=468	=468	=468
4EE-/	.	4E-/ 4B-/ 4e-/	.	4G/ 4e-/ 4ee-/	.	4G/ 4e-/ 4ee-/	.
4r	.	4r	.	4r	.	4r	.
=469	=469	=469	=469	=469	=469	=469	=469
4EE-/	.	4E-/ 4B-/ 4e-/	.	4G/ 4e-/ 4ee-/	.	4G/ 4e-/ 4ee-/	.
4r	.	4r	.	4r	.	4r	.
=470	=470	=470	=470	=470	=470	=470	=470
2r	.	2r	.	2r	.	2r	.
==	==	==	==	==	==	==	==
*-	*-	*-	*-	*-	*-	*-	*-
!!!ENC: Craig Stuart Sapp
!!!END: 2004/09/07/
